Cagedcarrow/ur10-robotic-arm-mud-shoveling-experiment-part/src/ur10_ft300_monitor/data/20260430_210606/ur10_ft300_realtime_data.csv
epoch_time,Time,Act_q0,Act_q1,Act_q2,Act_q3,Act_q4,Act_q5,Act_qd0,Act_qd1,Act_qd2,Act_qd3,Act_qd4,Act_qd5,Act_I0,Act_I1,Act_I2,Act_I3,Act_I4,Act_I5,Act_X,Act_Y,Act_Z,Act_RX,Act_RY,Act_RZ,Act_dX,Act_dY,Act_dZ,Act_dRX,Act_dRY,Act_dRZ,Tgt_q0,Tgt_q1,Tgt_q2,Tgt_q3,Tgt_q4,Tgt_q5,Robot_Mode,Safety_Mode,Main_Voltage,Robot_Voltage,Robot_Current,Fx,Fy,Fz,Mx,My,Mz,Label,ur_fresh,ft_fresh
1777554367.0007746,nan,nan,nan,nan,nan,nan,nan,nan,nan,nan,nan,nan,nan,nan,nan,nan,nan,nan,nan,nan,nan,nan,nan,nan,nan,nan,nan,nan,nan,nan,nan,nan,nan,nan,nan,nan,nan,nan,nan,nan,nan,nan,-16.25,34.42,42.62,0.514,-0.844,0.517,0,0,1
1777554367.1499221,nan,nan,nan,nan,nan,nan,nan,nan,nan,nan,nan,nan,nan,nan,nan,nan,nan,nan,nan,nan,nan,nan,nan,nan,nan,nan,nan,nan,nan,nan,nan,nan,nan,nan,nan,nan,nan,nan,nan,nan,nan,nan,-16.29,34.45,42.67,0.514,-0.841,0.514,0,0,1
1777554367.1835823,725.904,1.5493135452270508,0.02219557762145996,-2.233429257069723,-0.2853754202472132,4.748167037963867,1.2254289388656616,0.0,0.0,-0.0,0.0,0.0,0.0,0.2243042290210724,3.909302234649658,-1.9593424797058105,0.4710388779640198,-0.2086029201745987,0.0,-0.03216347006393058,-0.5634627092780177,0.7898969488195038,1.3881882063148752,1.9754073419019302,-0.9655202712927872,0.0,0.0,0.0,0.0,0.0,0.0,1.549285043924363,0.022163501158735777,-2.2334732800930217,-0.28534680585819316,4.748152037575089,1.2254387451645021,7.0,1.0,48.01499938964844,48.24300003051758,48.06100082397461,-16.29,34.45,42.67,0.514,-0.841,0.514,0,1,0
1777554367.1925356,725.9119999999999,1.5493015050888062,0.02220749855041504,-2.233453098927633,-0.2853754202472132,4.748178958892822,1.2254170179367065,0.0,0.0,-0.0,0.0,0.0,0.0,0.2334595024585724,3.945923328399658,-1.9458914995193481,0.4508515000343323,-0.2041168361902237,0.006729126907885075,-0.032166127296663405,-0.5634571714585543,0.789889601769412,1.3881758537163966,1.9754024147021452,-0.9655310975055486,0.0,0.0,0.0,0.0,0.0,0.0,1.549285043924363,0.022163501158735777,-2.2334732800930217,-0.28534680585819316,4.748152037575089,1.2254387451645021,7.0,1.0,48.01499938964844,48.24300003051758,48.06100082397461,-16.29,34.45,42.67,0.514,-0.841,0.514,0,1,0
1777554367.1984842,725.92,1.5492775440216064,0.022171616554260254,-2.233441177998678,-0.2854111830340784,4.748167037963867,1.225404977798462,0.0,0.0,-0.0,0.0,0.0,0.0,0.2471924126148224,3.886414051055908,-1.966067910194397,0.4620667099952698,-0.2086029201745987,0.008972168900072575,-0.0321775765629104,-0.5634324776527231,0.7899240568011601,1.3881686196164602,1.975357579991831,-0.9656100925532429,0.0,0.0,0.0,0.0,0.0,0.0,1.549285043924363,0.022163501158735777,-2.2334732800930217,-0.28534680585819316,4.748152037575089,1.2254387451645021,7.0,1.0,48.01499938964844,48.22800064086914,48.06100082397461,-16.29,34.45,42.67,0.514,-0.841,0.514,0,1,0
1777554367.2437942,725.928,1.5493015050888062,0.022231459617614746,-2.233465019856588,-0.2853754202472132,4.748155117034912,1.2254170179367065,0.0,0.0,-0.0,0.0,0.0,0.0,0.2700805962085724,3.895569324493408,-1.961584210395813,0.4598236680030823,-0.2086029201745987,0.004486084450036287,-0.032168707864613066,-0.563461449960839,0.7898781278887368,1.3882006724004772,1.9754119962201315,-0.9655413627682181,0.0,0.0,0.0,0.0,0.0,0.0,1.549285043924363,0.022163501158735777,-2.2334732800930217,-0.28534680585819316,4.748152037575089,1.2254387451645021,7.0,1.0,48.0,48.22800064086914,48.06100082397461,-16.29,34.45,42.67,0.514,-0.841,0.514,0,1,0
1777554367.2459052,725.9359999999999,1.549289584159851,0.022243499755859375,-2.233465019856588,-0.2853511015521448,4.748238563537598,1.2254170179367065,0.0,0.0,-0.0,0.0,0.0,0.0,0.2655029594898224,3.900146961212158,-1.9593424797058105,0.4575806260108948,-0.2108459621667862,0.0,-0.03216725776734325,-0.5634866655060918,0.7898550497512756,1.3881701930363382,1.9754293191051921,-0.965441833830964,0.0,0.0,0.0,0.0,0.0,0.0,1.549285043924363,0.022163501158735777,-2.2334732800930217,-0.28534680585819316,4.748152037575089,1.2254387451645021,7.0,1.0,48.0,48.22800064086914,48.06100082397461,-16.29,34.45,42.67,0.514,-0.841,0.514,0,1,0
1777554367.2549138,725.944,1.549289584159851,0.02220749855041504,-2.233465019856588,-0.2854231039630335,4.748190879821777,1.2253690958023071,0.0,0.0,-0.0,0.0,0.0,0.0,0.2792358696460724,3.932190418243408,-1.9571006298065186,0.4575806260108948,-0.2041168361902237,0.006729126907885075,-0.032160205342504605,-0.5634453603891514,0.7899090729686196,1.3881063389702706,1.975394231964434,-0.9655998097996306,0.0,0.0,0.0,0.0,0.0,0.0,1.549285043924363,0.022163501158735777,-2.2334732800930217,-0.28534680585819316,4.748152037575089,1.2254387451645021,7.0,1.0,48.0,48.22800064086914,48.06100082397461,-16.29,34.45,42.67,0.514,-0.841,0.514,0,1,0
1777554367.2563794,725.952,1.5493015050888062,0.022231459617614746,-2.233453098927633,-0.2854111830340784,4.748178958892822,1.2253930568695068,0.0,0.0,-0.0,0.0,0.0,0.0,0.2563476860523224,3.868103504180908,-1.966067910194397,0.4530945420265198,-0.2063598781824112,0.0022430422250181437,-0.032160792989758547,-0.5634678666267139,0.789890254507324,1.3881488578225163,1.9754146430745818,-0.9655521137491746,0.0,0.0,0.0,0.0,0.0,0.0,1.549285043924363,0.022163501158735777,-2.2334732800930217,-0.28534680585819316,4.748152037575089,1.2254387451645021,7.0,1.0,48.0,48.22800064086914,48.06100082397461,-16.29,34.45,42.67,0.514,-0.841,0.514,0,1,0
1777554367.2629545,725.9599999999999,1.5493135452270508,0.022219538688659668,-2.233453098927633,-0.2853634993182581,4.748190879821777,1.2253930568695068,0.0,0.0,-0.0,0.0,0.0,0.0,0.2243042290210724,3.890991687774658,-1.9503751993179321,0.4598236680030823,-0.2108459621667862,-0.004486084450036287,-0.03215278944082972,-0.5634725029129458,0.7898817079965301,1.3881458056770222,1.9754465665794978,-0.9655049859690393,0.0,0.0,0.0,0.0,0.0,0.0,1.549285043924363,0.022163501158735777,-2.2334732800930217,-0.28534680585819316,4.748152037575089,1.2254387451645021,7.0,1.0,48.0,48.22800064086914,48.06100082397461,-16.29,34.45,42.67,0.514,-0.841,0.514,0,1,0
1777554367.2703488,725.968,1.5493135452270508,0.022219538688659668,-2.2333930174456995,-0.28538734117616826,4.748178958892822,1.2253570556640625,0.0,0.0,-0.0,0.0,0.0,0.0,0.2334595024585724,3.927612781524658,-1.9571006298065186,0.4620667099952698,-0.2108459621667862,-0.0022430422250181437,-0.03214638647611445,-0.5635100759050375,0.7898984575213589,1.388143529830525,1.9755048786902603,-0.9654995858140204,0.0,0.0,0.0,0.0,0.0,0.0,1.549285043924363,0.022163501158735777,-2.2334732800930217,-0.28534680585819316,4.748152037575089,1.2254387451645021,7.0,1.0,48.0,48.22800064086914,48.06100082397461,-16.29,34.45,42.67,0.514,-0.841,0.514,0,1,0
1777554367.2750409,725.976,1.5493254661560059,0.022219538688659668,-2.233429257069723,-0.2853754202472132,4.748202800750732,1.2253930568695068,0.0,0.0,-0.0,0.0,0.0,0.0,0.2700805962085724,3.895569324493408,-1.9481333494186401,0.4620667099952698,-0.2198181450366974,-0.0022430422250181437,-0.03214515931946374,-0.5634881611864575,0.7898850416478771,1.3881298857589923,1.9754609309513216,-0.965478672782676,0.0,0.0,0.0,0.0,0.0,0.0,1.549285043924363,0.022163501158735777,-2.2334732800930217,-0.28534680585819316,4.748152037575089,1.2254387451645021,7.0,1.0,48.0,48.22800064086914,48.06100082397461,-16.29,34.45,42.67,0.514,-0.841,0.514,0,1,0
1777554367.2819405,725.9839999999999,1.5493135452270508,0.02219557762145996,-2.233453098927633,-0.2853754202472132,4.748202800750732,1.2254409790039062,0.0,0.0,-0.0,0.0,0.0,0.0,0.2609253227710724,3.909302234649658,-1.9548587799072266,0.4643097519874573,-0.2063598781824112,0.0022430422250181437,-0.032162329739497425,-0.5634505758148105,0.7898900095339931,1.3881583658283796,1.9753781183698933,-0.9655045719744556,0.0,0.0,0.0,0.0,0.0,0.0,1.549285043924363,0.022163501158735777,-2.2334732800930217,-0.28534680585819316,4.748152037575089,1.2254387451645021,7.0,1.0,48.0,48.22800064086914,48.06100082397461,-16.29,34.45,42.67,0.514,-0.841,0.514,0,1,0
1777554367.292952,725.992,1.5493015050888062,0.022243499755859375,-2.233405415211813,-0.2854231039630335,4.7482147216796875,1.2253451347351074,0.0,0.0,-0.0,0.0,0.0,0.0,0.2288818657398224,3.932190418243408,-1.9548587799072266,0.4530945420265198,-0.2175751030445099,0.004486084450036287,-0.032146853597380926,-0.5635159807950437,0.789892724760554,1.3881063263309597,1.9754900401643907,-0.9655002372887999,0.0,0.0,0.0,0.0,0.0,0.0,1.549285043924363,0.022163501158735777,-2.2334732800930217,-0.28534680585819316,4.748152037575089,1.2254387451645021,7.0,1.0,48.0,48.22800064086914,48.06100082397461,-16.29,34.45,42.67,0.514,-0.841,0.514,0,1,0
1777554367.2945004,726.0,1.5493015050888062,0.02219557762145996,-2.233429257069723,-0.2854231039630335,4.748202800750732,1.2254170179367065,0.0,0.0,-0.0,0.0,0.0,0.0,0.2471924126148224,3.904724597930908,-1.9481333494186401,0.4598236680030823,-0.2086029201745987,-0.0022430422250181437,-0.03216372917002702,-0.5634585383665011,0.7899088220244719,1.3881381205569125,1.9753754378575274,-0.9655415335462978,0.0,0.0,0.0,0.0,0.0,0.0,1.549285043924363,0.022163501158735777,-2.2334732800930217,-0.28534680585819316,4.748152037575089,1.2254387451645021,7.0,1.0,48.0,48.22800064086914,48.06100082397461,-16.29,34.45,42.67,0.514,-0.841,0.514,0,1,0
1777554367.300797,726.0079999999999,1.5493135452270508,0.022267460823059082,-2.233453098927633,-0.2853754202472132,4.748178958892822,1.2253690958023071,0.0,0.0,-0.0,0.0,0.0,0.0,0.2334595024585724,3.854370594024658,-1.9436497688293457,0.4598236680030823,-0.2086029201745987,0.0022430422250181437,-0.032149072958997854,-0.5635024799370124,0.7898631718973167,1.3881540033327668,1.9754940486664314,-0.9654944573752493,0.0,0.0,0.0,0.0,0.0,0.0,1.549285043924363,0.022163501158735777,-2.2334732800930217,-0.28534680585819316,4.748152037575089,1.2254387451645021,7.0,1.0,47.986000061035156,48.22800064086914,48.06100082397461,-16.29,34.45,42.67,0.514,-0.841,0.514,0,1,0
1777554367.3063757,726.016,1.5493135452270508,0.022183537483215332,-2.233453098927633,-0.2853511015521448,4.748178958892822,1.2253690958023071,0.0,0.0,-0.0,0.0,0.0,0.0,0.2151489406824112,3.909302234649658,-1.963826060295105,0.4575806260108948,-0.2108459621667862,-0.0022430422250181437,-0.032147960270884735,-0.5634522313623427,0.789903392751927,1.388121305835922,1.9754508672590296,-0.965546971490416,0.0,0.0,0.0,0.0,0.0,0.0,1.549285043924363,0.022163501158735777,-2.2334732800930217,-0.28534680585819316,4.748152037575089,1.2254387451645021,7.0,1.0,47.986000061035156,48.22800064086914,48.06100082397461,-16.29,34.45,42.67,0.514,-0.841,0.514,0,1,0
1777554367.3125463,726.024,1.5493135452270508,0.022171616554260254,-2.233429257069723,-0.2853754202472132,4.7482147216796875,1.2253930568695068,0.0,0.0,-0.0,0.0,0.0,0.0,0.2471924126148224,3.913879871368408,-1.9593424797058105,0.4665527939796448,-0.2108459621667862,0.0,-0.032149994665482184,-0.5634578254030728,0.7899107652197428,1.3881078468972983,1.975419568832918,-0.9655157529974686,0.0,0.0,0.0,0.0,0.0,0.0,1.549285043924363,0.022163501158735777,-2.2334732800930217,-0.28534680585819316,4.748152037575089,1.2254387451645021,7.0,1.0,47.986000061035156,48.22800064086914,48.06100082397461,-16.29,34.45,42.67,0.514,-0.841,0.514,0,1,0
1777554367.3242912,726.0319999999999,1.5493015050888062,0.02220749855041504,-2.233429257069723,-0.28538734117616826,4.748202800750732,1.2253930568695068,0.0,0.0,-0.0,0.0,0.0,0.0,0.2426147758960724,3.868103504180908,-1.961584210395813,0.4643097519874573,-0.2153320610523224,-0.0022430422250181437,-0.03215845220675359,-0.5634768288112811,0.7898953241256027,1.3881435020957085,1.975431169773206,-0.9655104654988108,0.0,0.0,0.0,0.0,0.0,0.0,1.549285043924363,0.022163501158735777,-2.2334732800930217,-0.28534680585819316,4.748152037575089,1.2254387451645021,7.0,1.0,47.986000061035156,48.22800064086914,48.06100082397461,-16.29,34.45,42.67,0.514,-0.841,0.514,0,1,0
1777554367.3325698,726.04,1.5493135452270508,0.02220749855041504,-2.233453098927633,-0.28538734117616826,4.748190879821777,1.2254170179367065,0.0,0.0,-0.0,0.0,0.0,0.0,0.2426147758960724,3.895569324493408,-1.963826060295105,0.4508515000343323,-0.2130890041589737,-0.0022430422250181437,-0.03215810293935242,-0.5634567276979524,0.7898917828246174,1.3881468543820628,1.9753994556201206,-0.9655257132017611,0.0,0.0,0.0,0.0,0.0,0.0,1.549285043924363,0.022163501158735777,-2.2334732800930217,-0.28534680585819316,4.748152037575089,1.2254387451645021,7.0,1.0,47.986000061035156,48.22800064086914,48.06100082397461,-16.29,34.45,42.67,0.514,-0.841,0.514,0,1,0
1777554367.3407388,726.04,1.5493135452270508,0.02220749855041504,-2.233453098927633,-0.28538734117616826,4.748190879821777,1.2254170179367065,0.0,0.0,-0.0,0.0,0.0,0.0,0.2426147758960724,3.895569324493408,-1.963826060295105,0.4508515000343323,-0.2130890041589737,-0.0022430422250181437,-0.03215810293935242,-0.5634567276979524,0.7898917828246174,1.3881468543820628,1.9753994556201206,-0.9655257132017611,0.0,0.0,0.0,0.0,0.0,0.0,1.549285043924363,0.022163501158735777,-2.2334732800930217,-0.28534680585819316,4.748152037575089,1.2254387451645021,7.0,1.0,47.986000061035156,48.22800064086914,48.06100082397461,-16.33,34.4,42.64,0.51,-0.843,0.515,0,0,1
1777554367.345081,726.048,1.549289584159851,0.022171616554260254,-2.233465019856588,-0.2854111830340784,4.748167037963867,1.2253690958023071,0.0,0.0,-0.0,0.0,0.0,0.0,0.2609253227710724,3.881836414337158,-1.9503751993179321,0.4508515000343323,-0.2175751030445099,0.004486084450036287,-0.03216213831802228,-0.5634206810313881,0.7899284406080284,1.3881113622074666,1.9753777549980416,-0.9656417772967223,0.0,0.0,0.0,0.0,0.0,0.0,1.549285043924363,0.022163501158735777,-2.2334732800930217,-0.28534680585819316,4.748152037575089,1.2254387451645021,7.0,1.0,47.986000061035156,48.22800064086914,48.06100082397461,-16.33,34.4,42.64,0.51,-0.843,0.515,0,1,0
1777554367.3555963,726.0559999999999,1.5493135452270508,0.022183537483215332,-2.233453098927633,-0.28539926210512334,4.748190879821777,1.2254170179367065,0.0,0.0,-0.0,0.0,0.0,0.0,0.2380371391773224,3.909302234649658,-1.9481333494186401,0.4598236680030823,-0.2108459621667862,0.004486084450036287,-0.032157725111237545,-0.56343827602145,0.7899087889874195,1.3881272404267997,1.9753733469258379,-0.9655572354997775,0.0,0.0,0.0,0.0,0.0,0.0,1.549285043924363,0.022163501158735777,-2.2334732800930217,-0.28534680585819316,4.748152037575089,1.2254387451645021,7.0,1.0,47.986000061035156,48.22800064086914,48.06100082397461,-16.33,34.4,42.64,0.51,-0.843,0.515,0,1,0
1777554367.363967,726.064,1.5493135452270508,0.022231459617614746,-2.233441177998678,-0.28538734117616826,4.7482147216796875,1.2253690958023071,0.0,0.0,-0.0,0.0,0.0,0.0,0.2197265923023224,3.895569324493408,-1.963826060295105,0.4665527939796448,-0.2063598781824112,0.0022430422250181437,-0.032145081296172634,-0.5634894023106636,0.789883619670762,1.3881070119733383,1.9754665768906263,-0.9654948049522158,0.0,0.0,0.0,0.0,0.0,0.0,1.549285043924363,0.022163501158735777,-2.2334732800930217,-0.28534680585819316,4.748152037575089,1.2254387451645021,7.0,1.0,47.986000061035156,48.22800064086914,48.06100082397461,-16.33,34.4,42.64,0.51,-0.843,0.515,0,1,0
1777554367.3767734,726.072,1.549289584159851,0.022219538688659668,-2.233429257069723,-0.2853634993182581,4.748178958892822,1.225404977798462,0.0,0.0,-0.0,0.0,0.0,0.0,0.2197265923023224,3.900146961212158,-1.9481333494186401,0.4508515000343323,-0.2086029201745987,-0.0022430422250181437,-0.03217058716128374,-0.5634847722475118,0.7898823302195935,1.3882048060455312,1.9754416548754652,-0.9654998328771711,0.0,0.0,0.0,0.0,0.0,0.0,1.549285043924363,0.022163501158735777,-2.2334732800930217,-0.28534680585819316,4.748152037575089,1.2254387451645021,7.0,1.0,47.986000061035156,48.22800064086914,48.06100082397461,-16.33,34.4,42.64,0.51,-0.843,0.515,0,1,0
1777554367.3816404,726.0799999999999,1.5493015050888062,0.022243499755859375,-2.233465019856588,-0.2853634993182581,4.7482147216796875,1.2253810167312622,0.0,0.0,-0.0,0.0,0.0,0.0,0.2563476860523224,3.895569324493408,-1.9458914995193481,0.4575806260108948,-0.2041168361902237,0.0,-0.03215455138442441,-0.5634847615767652,0.789866854564294,1.3881373289854093,1.9754587418477618,-0.9654843577547371,0.0,0.0,0.0,0.0,0.0,0.0,1.549285043924363,0.022163501158735777,-2.2334732800930217,-0.28534680585819316,4.748152037575089,1.2254387451645021,7.0,1.0,47.986000061035156,48.22800064086914,48.06100082397461,-16.33,34.4,42.64,0.51,-0.843,0.515,0,1,0
1777554367.3921595,726.088,1.549289584159851,0.02219557762145996,-2.2334168593036097,-0.28538734117616826,4.748178958892822,1.2253810167312622,0.0,0.0,-0.0,0.0,0.0,0.0,0.2609253227710724,3.868103504180908,-1.961584210395813,0.4687958359718323,-0.2130890041589737,-0.004486084450036287,-0.03216478107014356,-0.5634747218433431,0.7899071247475458,1.388164799613596,1.975436831019499,-0.9655416469672669,0.0,0.0,0.0,0.0,0.0,0.0,1.549285043924363,0.022163501158735777,-2.2334732800930217,-0.28534680585819316,4.748152037575089,1.2254387451645021,7.0,1.0,47.97100067138672,48.22800064086914,48.06100082397461,-16.33,34.4,42.64,0.51,-0.843,0.515,0,1,0
1777554367.3940296,726.096,1.5492775440216064,0.022219538688659668,-2.233453098927633,-0.2854231039630335,4.748190879821777,1.2253690958023071,0.0,0.0,-0.0,0.0,0.0,0.0,0.2334595024585724,3.927612781524658,-1.961584210395813,0.4665527939796448,-0.2198181450366974,0.0,-0.03216732436994371,-0.5634609947487718,0.7899028578984381,1.3881328222101237,1.9754054830827485,-0.9655841321544643,0.0,0.0,0.0,0.0,0.0,0.0,1.549285043924363,0.022163501158735777,-2.2334732800930217,-0.28534680585819316,4.748152037575089,1.2254387451645021,7.0,1.0,47.97100067138672,48.22800064086914,48.06100082397461,-16.33,34.4,42.64,0.51,-0.843,0.515,0,1,0
1777554367.4050238,726.1039999999999,1.5493135452270508,0.02219557762145996,-2.233441177998678,-0.28538734117616826,4.748155117034912,1.2253690958023071,0.0,0.0,-0.0,0.0,0.0,0.0,0.2426147758960724,3.909302234649658,-1.9683096408843994,0.4687958359718323,-0.2018737941980362,0.0,-0.0321505836535767,-0.5634568415191887,0.7899104070426697,1.3881328006086888,1.975442705107786,-0.9655784957628278,0.0,0.0,0.0,0.0,0.0,0.0,1.549285043924363,0.022163501158735777,-2.2334732800930217,-0.28534680585819316,4.748152037575089,1.2254387451645021,7.0,1.0,47.97100067138672,48.22800064086914,48.06100082397461,-16.33,34.4,42.64,0.51,-0.843,0.515,0,1,0
1777554367.409465,726.112,1.5493135452270508,0.02220749855041504,-2.233429257069723,-0.28533965746034795,4.748190879821777,1.2254170179367065,0.0,0.0,-0.0,0.0,0.0,0.0,0.2609253227710724,3.927612781524658,-1.9727933406829834,0.4620667099952698,-0.2153320610523224,0.0022430422250181437,-0.032158582383998074,-0.5634832087070037,0.7898789736576709,1.388185780653229,1.9754516723565911,-0.9654629468687966,0.0,0.0,0.0,0.0,0.0,0.0,1.549285043924363,0.022163501158735777,-2.2334732800930217,-0.28534680585819316,4.748152037575089,1.2254387451645021,7.0,1.0,47.97100067138672,48.22800064086914,48.06100082397461,-16.33,34.4,42.64,0.51,-0.843,0.515,0,1,0
1777554367.4111583,726.12,1.5493135452270508,0.02219557762145996,-2.233441177998678,-0.2853511015521448,4.748155117034912,1.2253690958023071,0.0,0.0,-0.0,0.0,0.0,0.0,0.2471924126148224,3.900146961212158,-1.961584210395813,0.4575806260108948,-0.1973877102136612,-0.004486084450036287,-0.032150699178318476,-0.5634647271799829,0.7898997961624032,1.3881525440931397,1.9754691783287825,-0.9655467397956196,0.0,0.0,0.0,0.0,0.0,0.0,1.549285043924363,0.022163501158735777,-2.2334732800930217,-0.28534680585819316,4.748152037575089,1.2254387451645021,7.0,1.0,47.97100067138672,48.22800064086914,48.06100082397461,-16.33,34.4,42.64,0.51,-0.843,0.515,0,1,0
1777554367.422034,726.1279999999999,1.549289584159851,0.022267460823059082,-2.233453098927633,-0.28539926210512334,4.748167037963867,1.2254528999328613,0.0,0.0,-0.0,0.0,0.0,0.0,0.2288818657398224,3.868103504180908,-1.9548587799072266,0.4575806260108948,-0.2063598781824112,0.006729126907885075,-0.03218314787318066,-0.5634855965634229,0.7898585297482442,1.3882489590606346,1.9753914789984646,-0.9654989144377008,0.0,0.0,0.0,0.0,0.0,0.0,1.549285043924363,0.022163501158735777,-2.2334732800930217,-0.28534680585819316,4.748152037575089,1.2254387451645021,7.0,1.0,47.97100067138672,48.22800064086914,48.06100082397461,-16.33,34.4,42.64,0.51,-0.843,0.515,0,1,0
1777554367.4287074,726.136,1.5492775440216064,0.022231459617614746,-2.233429257069723,-0.2853634993182581,4.7482147216796875,1.225404977798462,0.0,0.0,-0.0,0.0,0.0,0.0,0.2471924126148224,3.904724597930908,-1.9481333494186401,0.4441223740577698,-0.2086029201745987,0.0022430422250181437,-0.03217393429086718,-0.5634975624124502,0.7898716771905512,1.3881974910394437,1.9754428136388533,-0.9654634741101706,0.0,0.0,0.0,0.0,0.0,0.0,1.549285043924363,0.022163501158735777,-2.2334732800930217,-0.28534680585819316,4.748152037575089,1.2254387451645021,7.0,1.0,47.97100067138672,48.25899887084961,48.06100082397461,-16.33,34.4,42.64,0.51,-0.843,0.515,0,1,0
1777554367.4379184,726.144,1.5493015050888062,0.022231459617614746,-2.233465019856588,-0.28538734117616826,4.748178958892822,1.2254170179367065,0.0,0.0,-0.0,0.0,0.0,0.0,0.2655029594898224,3.886414051055908,-1.966067910194397,0.4553375840187073,-0.2130890041589737,0.0,-0.03216626544896295,-0.5634623818852518,0.7898789995495727,1.3881760042446873,1.9754024145941336,-0.9655309575545736,0.0,0.0,0.0,0.0,0.0,0.0,1.549285043924363,0.022163501158735777,-2.2334732800930217,-0.28534680585819316,4.748152037575089,1.2254387451645021,7.0,1.0,47.97100067138672,48.25899887084961,48.06100082397461,-16.33,34.4,42.64,0.51,-0.843,0.515,0,1,0
1777554367.4576526,726.1519999999999,1.5493135452270508,0.022159576416015625,-2.233429257069723,-0.28538734117616826,4.748167037963867,1.2253690958023071,0.0,0.0,-0.0,0.0,0.0,0.0,0.2380371391773224,3.849792957305908,-1.9907277822494507,0.4620667099952698,-0.2130890041589737,0.0022430422250181437,-0.03214903458687643,-0.5634428307546924,0.789929981860826,1.3881104768611958,1.9754248160554282,-0.9655892472038526,0.0,0.0,0.0,0.0,0.0,0.0,1.549285043924363,0.022163501158735777,-2.2334732800930217,-0.28534680585819316,4.748152037575089,1.2254387451645021,7.0,1.0,47.97100067138672,48.25899887084961,48.06100082397461,-16.33,34.4,42.64,0.51,-0.843,0.515,0,1,0
1777554367.4693987,726.16,1.5493015050888062,0.022183537483215332,-2.2334168593036097,-0.2853754202472132,4.748190879821777,1.2253810167312622,0.0,0.0,-0.0,0.0,0.0,0.0,0.2243042290210724,3.886414051055908,-1.9705514907836914,0.4710388779640198,-0.2220611870288849,-0.0022430422250181437,-0.032156728870632895,-0.5634714935119954,0.7899091168273339,1.3881423305916964,1.9754424826272956,-0.9655260157089617,0.0,0.0,0.0,0.0,0.0,0.0,1.549285043924363,0.022163501158735777,-2.2334732800930217,-0.28534680585819316,4.748152037575089,1.2254387451645021,7.0,1.0,48.0,48.25899887084961,48.06100082397461,-16.33,34.4,42.64,0.51,-0.843,0.515,0,1,0
1777554367.48467,726.168,1.5493015050888062,0.022183537483215332,-2.233429257069723,-0.2853754202472132,4.748202800750732,1.2253810167312622,0.0,0.0,-0.0,0.0,0.0,0.0,0.2288818657398224,3.863525867462158,-1.9481333494186401,0.4598236680030823,-0.2063598781824112,0.004486084450036287,-0.032155356237614535,-0.5634648811182416,0.7899072081171766,1.388126511635791,1.9754330051207099,-0.9655265014283205,0.0,0.0,0.0,0.0,0.0,0.0,1.549285043924363,0.022163501158735777,-2.2334732800930217,-0.28534680585819316,4.748152037575089,1.2254387451645021,7.0,1.0,48.0,48.25899887084961,48.06100082397461,-16.33,34.4,42.64,0.51,-0.843,0.515,0,1,0
1777554367.491801,726.1759999999999,1.5493135452270508,0.02220749855041504,-2.233465019856588,-0.2853754202472132,4.748142719268799,1.2253451347351074,0.0,0.0,-0.0,0.0,0.0,0.0,0.2334595024585724,3.895569324493408,-1.9817605018615723,0.4598236680030823,-0.2063598781824112,0.008972168900072575,-0.03214615304391419,-0.5634520047374175,0.789904098298961,1.3881216951357422,1.975464090856196,-0.9656001439965481,0.0,0.0,0.0,0.0,0.0,0.0,1.549285043924363,0.022163501158735777,-2.2334732800930217,-0.28534680585819316,4.748152037575089,1.2254387451645021,7.0,1.0,48.0,48.25899887084961,48.06100082397461,-16.33,34.4,42.64,0.51,-0.843,0.515,0,1,0
1777554367.5003877,726.184,1.549289584159851,0.02219557762145996,-2.233441177998678,-0.28533965746034795,4.748202800750732,1.2253570556640625,0.0,0.0,-0.0,0.0,0.0,0.0,0.2243042290210724,3.881836414337158,-1.9526170492172241,0.4687958359718323,-0.2153320610523224,0.0022430422250181437,-0.03215663412411143,-0.5634748140051627,0.7898930659913135,1.388138768869607,1.9754740066988128,-0.9655111691289778,0.0,0.0,0.0,0.0,0.0,0.0,1.549285043924363,0.022163501158735777,-2.2334732800930217,-0.28534680585819316,4.748152037575089,1.2254387451645021,7.0,1.0,48.0,48.25899887084961,48.06100082397461,-16.33,34.4,42.64,0.51,-0.843,0.515,0,1,0
1777554367.5060525,726.192,1.549289584159851,0.022219538688659668,-2.233429257069723,-0.2853634993182581,4.748178958892822,1.2253690958023071,0.0,0.0,-0.0,0.0,0.0,0.0,0.2243042290210724,3.872681140899658,-1.9727933406829834,0.4687958359718323,-0.2086029201745987,0.004486084450036287,-0.03216226058725105,-0.5634886951915973,0.7898878673720979,1.3881739113022287,1.9754730308731194,-0.9655159385552397,0.0,0.0,0.0,0.0,0.0,0.0,1.549285043924363,0.022163501158735777,-2.2334732800930217,-0.28534680585819316,4.748152037575089,1.2254387451645021,7.0,1.0,48.0,48.25899887084961,48.01499938964844,-16.33,34.4,42.64,0.51,-0.843,0.515,0,1,0
1777554367.516665,726.1999999999999,1.5493015050888062,0.022243499755859375,-2.233465019856588,-0.2853511015521448,4.748178958892822,1.2253930568695068,0.0,0.0,-0.0,0.0,0.0,0.0,0.2380371391773224,3.927612781524658,-1.9526170492172241,0.4598236680030823,-0.2063598781824112,0.0,-0.032160991685759116,-0.5634808545724724,0.7898652944102807,1.3881817100845368,1.9754585821879544,-0.9654993657192644,0.0,0.0,0.0,0.0,0.0,0.0,1.549285043924363,0.022163501158735777,-2.2334732800930217,-0.28534680585819316,4.748152037575089,1.2254387451645021,7.0,1.0,48.0,48.25899887084961,48.01499938964844,-16.33,34.4,42.64,0.51,-0.843,0.515,0,1,0
1777554367.5202472,726.1999999999999,1.5493015050888062,0.022243499755859375,-2.233465019856588,-0.2853511015521448,4.748178958892822,1.2253930568695068,0.0,0.0,-0.0,0.0,0.0,0.0,0.2380371391773224,3.927612781524658,-1.9526170492172241,0.4598236680030823,-0.2063598781824112,0.0,-0.032160991685759116,-0.5634808545724724,0.7898652944102807,1.3881817100845368,1.9754585821879544,-0.9654993657192644,0.0,0.0,0.0,0.0,0.0,0.0,1.549285043924363,0.022163501158735777,-2.2334732800930217,-0.28534680585819316,4.748152037575089,1.2254387451645021,7.0,1.0,48.0,48.25899887084961,48.01499938964844,-16.27,34.32,42.63,0.508,-0.844,0.518,0,0,1
1777554367.5236413,726.208,1.5493015050888062,0.022219538688659668,-2.233453098927633,-0.28539926210512334,4.748202800750732,1.2254170179367065,0.0,0.0,-0.0,0.0,0.0,0.0,0.2471924126148224,3.932190418243408,-1.9548587799072266,0.4732819199562073,-0.2130890041589737,0.006729126907885075,-0.0321638175967601,-0.5634634776451232,0.789887172212506,1.3881512825937081,1.9753928687673419,-0.9655205473333452,0.0,0.0,0.0,0.0,0.0,0.0,1.549285043924363,0.022163501158735777,-2.2334732800930217,-0.28534680585819316,4.748152037575089,1.2254387451645021,7.0,1.0,48.0,48.25899887084961,48.01499938964844,-16.27,34.32,42.63,0.508,-0.844,0.518,0,1,0
1777554367.5266347,726.216,1.5493015050888062,0.022171616554260254,-2.233453098927633,-0.28539926210512334,4.7482147216796875,1.2254170179367065,0.0,0.0,-0.0,0.0,0.0,0.0,0.2517700493335724,3.863525867462158,-1.9593424797058105,0.4710388779640198,-0.2130890041589737,0.004486084450036287,-0.03216193527963468,-0.5634335251385636,0.7899128946867674,1.3881159574766495,1.9753576314300385,-0.9655522754615806,0.0,0.0,0.0,0.0,0.0,0.0,1.549285043924363,0.022163501158735777,-2.2334732800930217,-0.28534680585819316,4.748152037575089,1.2254387451645021,7.0,1.0,48.0,48.25899887084961,48.01499938964844,-16.27,34.32,42.63,0.508,-0.844,0.518,0,1,0
1777554367.5292153,726.2239999999999,1.5493135452270508,0.022231459617614746,-2.233441177998678,-0.28538734117616826,4.748262405395508,1.2253810167312622,0.0,0.0,-0.0,0.0,0.0,0.0,0.2517700493335724,3.932190418243408,-1.9503751993179321,0.4508515000343323,-0.1996307522058487,0.004486084450036287,-0.032143038180893396,-0.5634951500496683,0.7898765429101662,1.38808092961828,1.9754544034151071,-0.9654477524059231,0.0,0.0,0.0,0.0,0.0,0.0,1.549285043924363,0.022163501158735777,-2.2334732800930217,-0.28534680585819316,4.748152037575089,1.2254387451645021,7.0,1.0,48.0,48.25899887084961,48.01499938964844,-16.27,34.32,42.63,0.508,-0.844,0.518,0,1,0
1777554367.5317395,726.232,1.549289584159851,0.022171616554260254,-2.2334769407855433,-0.2853511015521448,4.748226642608643,1.2253810167312622,0.0,0.0,-0.0,0.0,0.0,0.0,0.2197265923023224,3.900146961212158,-1.961584210395813,0.4530945420265198,-0.2086029201745987,0.0022430422250181437,-0.03215892142875584,-0.56343321371126,0.7899018870564869,1.3881024521229466,1.9754003437979464,-0.9655421438942487,0.0,0.0,0.0,0.0,0.0,0.0,1.549285043924363,0.022163501158735777,-2.2334732800930217,-0.28534680585819316,4.748152037575089,1.2254387451645021,7.0,1.0,48.0,48.25899887084961,48.01499938964844,-16.27,34.32,42.63,0.508,-0.844,0.518,0,1,0
1777554367.5348427,726.24,1.5492775440216064,0.02219557762145996,-2.233441177998678,-0.2853511015521448,4.748178958892822,1.2253930568695068,0.0,0.0,-0.0,0.0,0.0,0.0,0.2609253227710724,3.900146961212158,-1.966067910194397,0.4463654160499573,-0.2108459621667862,0.0,-0.03217414053971837,-0.5634644753344935,0.789893479939596,1.3881951226824332,1.9754288562283906,-0.9655312932114494,0.0,0.0,0.0,0.0,0.0,0.0,1.549285043924363,0.022163501158735777,-2.2334732800930217,-0.28534680585819316,4.748152037575089,1.2254387451645021,7.0,1.0,47.986000061035156,48.25899887084961,48.01499938964844,-16.27,34.32,42.63,0.508,-0.844,0.518,0,1,0
1777554367.5636976,726.2479999999999,1.5493135452270508,0.022231459617614746,-2.233465019856588,-0.28539926210512334,4.748178958892822,1.2254289388656616,0.0,0.0,-0.0,0.0,0.0,0.0,0.2426147758960724,3.895569324493408,-1.966067910194397,0.4620667099952698,-0.2153320610523224,-0.006729126907885075,-0.032162209536971964,-0.5634588720509055,0.7898806501821856,1.388166355220064,1.9753894685518445,-0.9655306476413227,0.0,0.0,0.0,0.0,0.0,0.0,1.549285043924363,0.022163501158735777,-2.2334732800930217,-0.28534680585819316,4.748152037575089,1.2254387451645021,7.0,1.0,47.986000061035156,48.25899887084961,48.01499938964844,-16.27,34.32,42.63,0.508,-0.844,0.518,0,1,0
1777554367.5930216,726.256,1.5493015050888062,0.022171616554260254,-2.233429257069723,-0.28539926210512334,4.748202800750732,1.2253690958023071,0.0,0.0,-0.0,0.0,0.0,0.0,0.2838135063648224,3.849792957305908,-1.9548587799072266,0.4665527939796448,-0.2198181450366974,0.004486084450036287,-0.03215234465808625,-0.5634531066534961,0.789922753100537,1.3880967314501003,1.9754173557440915,-0.965563230921788,0.0,0.0,0.0,0.0,0.0,0.0,1.549285043924363,0.022163501158735777,-2.2334732800930217,-0.28534680585819316,4.748152037575089,1.2254387451645021,7.0,1.0,47.986000061035156,48.25899887084961,48.01499938964844,-16.27,34.32,42.63,0.508,-0.844,0.518,0,1,0
1777554367.6006906,726.264,1.5493254661560059,0.022171616554260254,-2.233453098927633,-0.2853634993182581,4.748178958892822,1.2254170179367065,0.0,0.0,-0.0,0.0,0.0,0.0,0.2334595024585724,3.895569324493408,-1.9548587799072266,0.4643097519874573,-0.2108459621667862,0.0,-0.03215215561306517,-0.5634367888902639,0.7899063515245779,1.3881360002801006,1.9753973749744345,-0.9655414587216772,0.0,0.0,0.0,0.0,0.0,0.0,1.549285043924363,0.022163501158735777,-2.2334732800930217,-0.28534680585819316,4.748152037575089,1.2254387451645021,7.0,1.0,47.986000061035156,48.25899887084961,48.04600143432617,-16.27,34.32,42.63,0.508,-0.844,0.518,0,1,0
1777554367.6060839,726.2719999999999,1.5493135452270508,0.022183537483215332,-2.233441177998678,-0.2854111830340784,4.748202800750732,1.225404977798462,0.0,0.0,-0.0,0.0,0.0,0.0,0.2609253227710724,3.923035144805908,-1.9593424797058105,0.4732819199562073,-0.2086029201745987,-0.0022430422250181437,-0.032153854614718425,-0.5634468140933464,0.7899134049252128,1.3881077660007513,1.9753834227765157,-0.9655521696381592,0.0,0.0,0.0,0.0,0.0,0.0,1.549285043924363,0.022163501158735777,-2.2334732800930217,-0.28534680585819316,4.748152037575089,1.2254387451645021,7.0,1.0,47.986000061035156,48.25899887084961,48.04600143432617,-16.27,34.32,42.63,0.508,-0.844,0.518,0,1,0
1777554367.613287,726.28,1.5493135452270508,0.022231459617614746,-2.233441177998678,-0.28538734117616826,4.7482147216796875,1.2253930568695068,0.0,0.0,-0.0,0.0,0.0,0.0,0.2426147758960724,3.877258777618408,-1.966067910194397,0.4486084580421448,-0.2041168361902237,0.0,-0.03215064165283782,-0.563486783072001,0.7898799219489813,1.3881276428983538,1.9754456257825423,-0.9654840494670152,0.0,0.0,0.0,0.0,0.0,0.0,1.549285043924363,0.022163501158735777,-2.2334732800930217,-0.28534680585819316,4.748152037575089,1.2254387451645021,7.0,1.0,47.986000061035156,48.2130012512207,48.04600143432617,-16.27,34.32,42.63,0.508,-0.844,0.518,0,1,0
1777554367.6148481,726.288,1.5493135452270508,0.022183537483215332,-2.2334168593036097,-0.2853754202472132,4.748178958892822,1.2253690958023071,0.0,0.0,-0.0,0.0,0.0,0.0,0.2059936672449112,3.868103504180908,-1.9683096408843994,0.4530945420265198,-0.2041168361902237,-0.004486084450036287,-0.03214838048118954,-0.563471421020143,0.789912265728514,1.3881277352210297,1.9754595289385402,-0.965536387617535,0.0,0.0,0.0,0.0,0.0,0.0,1.549285043924363,0.022163501158735777,-2.2334732800930217,-0.28534680585819316,4.748152037575089,1.2254387451645021,7.0,1.0,47.986000061035156,48.2130012512207,48.04600143432617,-16.27,34.32,42.63,0.508,-0.844,0.518,0,1,0
1777554367.6161907,726.2959999999999,1.5492775440216064,0.022219538688659668,-2.233429257069723,-0.2853754202472132,4.748190879821777,1.2254170179367065,0.0,0.0,-0.0,0.0,0.0,0.0,0.2334595024585724,3.900146961212158,-1.9481333494186401,0.4575806260108948,-0.2175751030445099,0.0,-0.032178925209308124,-0.5634822376010926,0.7898826532815233,1.3882130089781677,1.9754157957583314,-0.9654998535832947,0.0,0.0,0.0,0.0,0.0,0.0,1.549285043924363,0.022163501158735777,-2.2334732800930217,-0.28534680585819316,4.748152037575089,1.2254387451645021,7.0,1.0,47.986000061035156,48.2130012512207,48.04600143432617,-16.27,34.32,42.63,0.508,-0.844,0.518,0,1,0
1777554367.6175036,726.304,1.5493135452270508,0.02220749855041504,-2.233429257069723,-0.28538734117616826,4.748190879821777,1.2253690958023071,0.0,0.0,-0.0,0.0,0.0,0.0,0.2380371391773224,3.900146961212158,-1.963826060295105,0.4575806260108948,-0.2086029201745987,-0.004486084450036287,-0.032147309782352335,-0.5634780724733182,0.7899003311050613,1.3881185401317002,1.9754587438569895,-0.9655262419026639,0.0,0.0,0.0,0.0,0.0,0.0,1.549285043924363,0.022163501158735777,-2.2334732800930217,-0.28534680585819316,4.748152037575089,1.2254387451645021,7.0,1.0,47.986000061035156,48.2130012512207,48.04600143432617,-16.27,34.32,42.63,0.508,-0.844,0.518,0,1,0
1777554367.6190393,726.312,1.549289584159851,0.02220749855041504,-2.233441177998678,-0.28539926210512334,4.748202800750732,1.2253930568695068,0.0,0.0,-0.0,0.0,0.0,0.0,0.2471924126148224,3.913879871368408,-1.9683096408843994,0.4598236680030823,-0.2086029201745987,0.004486084450036287,-0.03216496738788252,-0.5634657984367609,0.7898982382504185,1.3881438187842534,1.9754076450497022,-0.9655367540395224,0.0,0.0,0.0,0.0,0.0,0.0,1.549285043924363,0.022163501158735777,-2.2334732800930217,-0.28534680585819316,4.748152037575089,1.2254387451645021,7.0,1.0,48.0,48.2130012512207,48.04600143432617,-16.27,34.32,42.63,0.508,-0.844,0.518,0,1,0
1777554367.6234791,726.3199999999999,1.549289584159851,0.02220749855041504,-2.233453098927633,-0.2853511015521448,4.748155117034912,1.225404977798462,0.0,0.0,-0.0,0.0,0.0,0.0,0.2288818657398224,3.904724597930908,-1.966067910194397,0.4508515000343323,-0.2018737941980362,0.0022430422250181437,-0.03217253230143444,-0.563459869993822,0.7898869581243034,1.3882101952065156,1.975425456378986,-0.9655413941184355,0.0,0.0,0.0,0.0,0.0,0.0,1.549285043924363,0.022163501158735777,-2.2334732800930217,-0.28534680585819316,4.748152037575089,1.2254387451645021,7.0,1.0,48.0,48.2130012512207,48.04600143432617,-16.27,34.32,42.63,0.508,-0.844,0.518,0,1,0
1777554367.6251965,726.328,1.5493135452270508,0.022183537483215332,-2.233465019856588,-0.2853754202472132,4.7482147216796875,1.2253570556640625,0.0,0.0,-0.0,0.0,0.0,0.0,0.2288818657398224,3.904724597930908,-1.9548587799072266,0.4710388779640198,-0.2108459621667862,0.0022430422250181437,-0.032141318139443625,-0.5634454909123503,0.7899078670571024,1.3880639565014996,1.975433626232386,-0.9655529014362751,0.0,0.0,0.0,0.0,0.0,0.0,1.549285043924363,0.022163501158735777,-2.2334732800930217,-0.28534680585819316,4.748152037575089,1.2254387451645021,7.0,1.0,48.0,48.2130012512207,48.04600143432617,-16.27,34.32,42.63,0.508,-0.844,0.518,0,1,0
1777554367.6274235,726.336,1.5492656230926514,0.022147655487060547,-2.233441177998678,-0.28539926210512334,4.7482147216796875,1.2253810167312622,0.0,0.0,-0.0,0.0,0.0,0.0,0.2471924126148224,3.927612781524658,-1.966067910194397,0.4687958359718323,-0.2130890041589737,-0.004486084450036287,-0.03217362182870706,-0.5634285009206838,0.7899325431977255,1.3881183031350282,1.9753619690238073,-0.965595130433674,0.0,0.0,0.0,0.0,0.0,0.0,1.549285043924363,0.022163501158735777,-2.2334732800930217,-0.28534680585819316,4.748152037575089,1.2254387451645021,7.0,1.0,48.0,48.2130012512207,48.029998779296875,-16.27,34.32,42.63,0.508,-0.844,0.518,0,1,0
1777554367.6318471,726.3439999999999,1.549289584159851,0.022243499755859375,-2.233441177998678,-0.2853754202472132,4.748167037963867,1.2254170179367065,0.0,0.0,-0.0,0.0,0.0,0.0,0.2563476860523224,3.895569324493408,-1.9526170492172241,0.4643097519874573,-0.2108459621667862,-0.004486084450036287,-0.032174721473555434,-0.5634869034157057,0.7898711791990105,1.3882244096814491,1.975431563621738,-0.9655047142364168,0.0,0.0,0.0,0.0,0.0,0.0,1.549285043924363,0.022163501158735777,-2.2334732800930217,-0.28534680585819316,4.748152037575089,1.2254387451645021,7.0,1.0,48.0,48.2130012512207,48.029998779296875,-16.27,34.32,42.63,0.508,-0.844,0.518,0,1,0
1777554367.63361,726.352,1.5493135452270508,0.022183537483215332,-2.233429257069723,-0.28538734117616826,4.7482147216796875,1.225404977798462,0.0,0.0,-0.0,0.0,0.0,0.0,0.2243042290210724,3.868103504180908,-1.9593424797058105,0.4553375840187073,-0.2198181450366974,0.0022430422250181437,-0.03215289204271135,-0.5634618179436951,0.7899056914732574,1.3881181426614078,1.975409094442618,-0.965510361584793,0.0,0.0,0.0,0.0,0.0,0.0,1.549285043924363,0.022163501158735777,-2.2334732800930217,-0.28534680585819316,4.748152037575089,1.2254387451645021,7.0,1.0,48.0,48.18299865722656,48.029998779296875,-16.27,34.32,42.63,0.508,-0.844,0.518,0,1,0
1777554367.6389852,726.36,1.549289584159851,0.022255420684814453,-2.233429257069723,-0.2853754202472132,4.748178958892822,1.2254170179367065,0.0,0.0,-0.0,0.0,0.0,0.0,0.2334595024585724,3.945923328399658,-1.9571006298065186,0.4755249619483948,-0.2063598781824112,0.008972168900072575,-0.032173852457079044,-0.5635046083159126,0.7898637209001493,1.3882283232742705,1.975448475810382,-0.9654733106554492,0.0,0.0,0.0,0.0,0.0,0.0,1.549285043924363,0.022163501158735777,-2.2334732800930217,-0.28534680585819316,4.748152037575089,1.2254387451645021,7.0,1.0,48.0,48.18299865722656,48.029998779296875,-16.27,34.32,42.63,0.508,-0.844,0.518,0,1,0
1777554367.6406333,726.36,1.549289584159851,0.022255420684814453,-2.233429257069723,-0.2853754202472132,4.748178958892822,1.2254170179367065,0.0,0.0,-0.0,0.0,0.0,0.0,0.2334595024585724,3.945923328399658,-1.9571006298065186,0.4755249619483948,-0.2063598781824112,0.008972168900072575,-0.032173852457079044,-0.5635046083159126,0.7898637209001493,1.3882283232742705,1.975448475810382,-0.9654733106554492,0.0,0.0,0.0,0.0,0.0,0.0,1.549285043924363,0.022163501158735777,-2.2334732800930217,-0.28534680585819316,4.748152037575089,1.2254387451645021,7.0,1.0,48.0,48.18299865722656,48.029998779296875,-16.16,34.46,42.66,0.513,-0.843,0.516,0,0,1
1777554367.6467175,726.3679999999999,1.5493015050888062,0.022231459617614746,-2.233429257069723,-0.2853754202472132,4.748142719268799,1.2253930568695068,0.0,0.0,-0.0,0.0,0.0,0.0,0.2380371391773224,3.900146961212158,-1.9548587799072266,0.4553375840187073,-0.2130890041589737,-0.006729126907885075,-0.0321648893572595,-0.5634863955672663,0.7898849161446714,1.3882089119657464,1.9754594816113793,-0.9655314863798399,0.0,0.0,0.0,0.0,0.0,0.0,1.549285043924363,0.022163501158735777,-2.2334732800930217,-0.28534680585819316,4.748152037575089,1.2254387451645021,7.0,1.0,48.0,48.18299865722656,48.029998779296875,-16.16,34.46,42.66,0.513,-0.843,0.516,0,1,0
1777554367.6518142,726.376,1.5493135452270508,0.02219557762145996,-2.233441177998678,-0.28539926210512334,4.748155117034912,1.2253930568695068,0.0,0.0,-0.0,0.0,0.0,0.0,0.2471924126148224,3.872681140899658,-1.9571006298065186,0.4530945420265198,-0.2063598781824112,-0.0022430422250181437,-0.03215610601847099,-0.5634516281384032,0.7899101997608116,1.388146936187986,1.97541304504785,-0.9655781860565386,0.0,0.0,0.0,0.0,0.0,0.0,1.549285043924363,0.022163501158735777,-2.2334732800930217,-0.28534680585819316,4.748152037575089,1.2254387451645021,7.0,1.0,48.0,48.18299865722656,48.029998779296875,-16.16,34.46,42.66,0.513,-0.843,0.516,0,1,0
1777554367.6586003,726.384,1.5492775440216064,0.02219557762145996,-2.233429257069723,-0.2853754202472132,4.748190879821777,1.2253451347351074,0.0,0.0,-0.0,0.0,0.0,0.0,0.2288818657398224,3.918457508087158,-1.9593424797058105,0.4441223740577698,-0.2175751030445099,0.0,-0.032161904017147525,-0.5634742386584811,0.7899072627979685,1.3881379989003555,1.9754612513769076,-0.9655531972190374,0.0,0.0,0.0,0.0,0.0,0.0,1.549285043924363,0.022163501158735777,-2.2334732800930217,-0.28534680585819316,4.748152037575089,1.2254387451645021,7.0,1.0,48.0,48.18299865722656,48.029998779296875,-16.16,34.46,42.66,0.513,-0.843,0.516,0,1,0
1777554367.6600888,726.3919999999999,1.5493135452270508,0.022243499755859375,-2.233441177998678,-0.2853754202472132,4.7482147216796875,1.2253930568695068,0.0,0.0,-0.0,0.0,0.0,0.0,0.2746582329273224,3.900146961212158,-1.9436497688293457,0.4643097519874573,-0.2086029201745987,0.004486084450036287,-0.03215085040170482,-0.5634973448125598,0.7898696393043584,1.3881407296275519,1.9754630768272028,-0.965463012027887,0.0,0.0,0.0,0.0,0.0,0.0,1.549285043924363,0.022163501158735777,-2.2334732800930217,-0.28534680585819316,4.748152037575089,1.2254387451645021,7.0,1.0,48.0,48.18299865722656,48.029998779296875,-16.16,34.46,42.66,0.513,-0.843,0.516,0,1,0
1777554367.6642704,726.4,1.5493135452270508,0.02220749855041504,-2.2334769407855433,-0.28538734117616826,4.748202800750732,1.2253930568695068,0.0,0.0,-0.0,0.0,0.0,0.0,0.2655029594898224,3.927612781524658,-1.9683096408843994,0.4508515000343323,-0.2063598781824112,0.0022430422250181437,-0.0321510129505041,-0.5634450036944261,0.7898930182784667,1.3881041906822467,1.9754025846620311,-0.9655470259294818,0.0,0.0,0.0,0.0,0.0,0.0,1.549285043924363,0.022163501158735777,-2.2334732800930217,-0.28534680585819316,4.748152037575089,1.2254387451645021,7.0,1.0,48.0,48.18299865722656,48.029998779296875,-16.16,34.46,42.66,0.513,-0.843,0.516,0,1,0
1777554367.6742024,726.408,1.5493254661560059,0.022219538688659668,-2.2334168593036097,-0.2854111830340784,4.748190879821777,1.2253570556640625,0.0,0.0,-0.0,0.0,0.0,0.0,0.2014160305261612,3.909302234649658,-1.9683096408843994,0.4575806260108948,-0.2086029201745987,0.004486084450036287,-0.032138063434990705,-0.5634909275940039,0.7899029773673034,1.3880952227190815,1.9754757636397358,-0.965525685359776,0.0,0.0,0.0,0.0,0.0,0.0,1.549285043924363,0.022163501158735777,-2.2334732800930217,-0.28534680585819316,4.748152037575089,1.2254387451645021,7.0,1.0,48.0,48.18299865722656,48.07600021362305,-16.16,34.46,42.66,0.513,-0.843,0.516,0,1,0
1777554367.6757166,726.4159999999999,1.5493135452270508,0.022219538688659668,-2.233405415211813,-0.28538734117616826,4.748202800750732,1.2254170179367065,0.0,0.0,-0.0,0.0,0.0,0.0,0.2609253227710724,3.886414051055908,-1.9593424797058105,0.4598236680030823,-0.2130890041589737,0.006729126907885075,-0.032157726326583175,-0.5634986708957394,0.7898859866103523,1.388170253588414,1.9754425323310378,-0.9654627316318944,0.0,0.0,0.0,0.0,0.0,0.0,1.549285043924363,0.022163501158735777,-2.2334732800930217,-0.28534680585819316,4.748152037575089,1.2254387451645021,7.0,1.0,48.0,48.18299865722656,48.07600021362305,-16.16,34.46,42.66,0.513,-0.843,0.516,0,1,0
1777554367.6852958,726.424,1.5493135452270508,0.022183537483215332,-2.233429257069723,-0.2853634993182581,4.748226642608643,1.2253930568695068,0.0,0.0,-0.0,0.0,0.0,0.0,0.2517700493335724,3.877258777618408,-1.9526170492172241,0.4687958359718323,-0.2108459621667862,0.008972168900072575,-0.03214899940448171,-0.5634700715141212,0.7898992409723413,1.388111781852401,1.975436496242711,-0.9654843953538762,0.0,0.0,0.0,0.0,0.0,0.0,1.549285043924363,0.022163501158735777,-2.2334732800930217,-0.28534680585819316,4.748152037575089,1.2254387451645021,7.0,1.0,48.0,48.24300003051758,48.07600021362305,-16.16,34.46,42.66,0.513,-0.843,0.516,0,1,0
1777554367.6951747,726.432,1.549289584159851,0.022183537483215332,-2.233441177998678,-0.2854231039630335,4.748190879821777,1.2254170179367065,0.0,0.0,-0.0,0.0,0.0,0.0,0.2471924126148224,3.900146961212158,-1.9503751993179321,0.4620667099952698,-0.2086029201745987,0.0022430422250181437,-0.03217131347632138,-0.5634403703523196,0.7899163462420207,1.3881474261919273,1.975352313838468,-0.9655783920319518,0.0,0.0,0.0,0.0,0.0,0.0,1.549285043924363,0.022163501158735777,-2.2334732800930217,-0.28534680585819316,4.748152037575089,1.2254387451645021,7.0,1.0,48.0,48.24300003051758,48.07600021362305,-16.16,34.46,42.66,0.513,-0.843,0.516,0,1,0
1777554367.7039828,726.4399999999999,1.5493135452270508,0.022159576416015625,-2.233453098927633,-0.2853634993182581,4.748202800750732,1.2253930568695068,0.0,0.0,-0.0,0.0,0.0,0.0,0.2243042290210724,3.900146961212158,-1.961584210395813,0.4553375840187073,-0.2063598781824112,0.0,-0.03215073675558963,-0.563434582123465,0.7899142222779515,1.3881038896283555,1.9754025848740344,-0.9655473058301509,0.0,0.0,0.0,0.0,0.0,0.0,1.549285043924363,0.022163501158735777,-2.2334732800930217,-0.28534680585819316,4.748152037575089,1.2254387451645021,7.0,1.0,48.0,48.24300003051758,48.07600021362305,-16.16,34.46,42.66,0.513,-0.843,0.516,0,1,0
1777554367.7168782,726.448,1.5493135452270508,0.022183537483215332,-2.2334168593036097,-0.28538734117616826,4.748190879821777,1.2254289388656616,0.0,0.0,-0.0,0.0,0.0,0.0,0.2563476860523224,3.927612781524658,-1.9436497688293457,0.4575806260108948,-0.2041168361902237,0.0022430422250181437,-0.03216102710112162,-0.5634640480648716,0.7899052116863765,1.3881636785392022,1.9753980571701326,-0.9655095459628007,0.0,0.0,0.0,0.0,0.0,0.0,1.549285043924363,0.022163501158735777,-2.2334732800930217,-0.28534680585819316,4.748152037575089,1.2254387451645021,7.0,1.0,48.0,48.24300003051758,48.07600021362305,-16.16,34.46,42.66,0.513,-0.843,0.516,0,1,0
1777554367.7285998,726.456,1.5493135452270508,0.022255420684814453,-2.233441177998678,-0.28533965746034795,4.748226642608643,1.225404977798462,0.0,0.0,-0.0,0.0,0.0,0.0,0.2334595024585724,3.936768054962158,-1.966067910194397,0.4620667099952698,-0.2041168361902237,0.0,-0.03215269741406293,-0.5635134740248059,0.7898492932608285,1.3881679183921585,1.9754869949281564,-0.9654054100861539,0.0,0.0,0.0,0.0,0.0,0.0,1.549285043924363,0.022163501158735777,-2.2334732800930217,-0.28534680585819316,4.748152037575089,1.2254387451645021,7.0,1.0,48.0,48.24300003051758,48.07600021362305,-16.16,34.46,42.66,0.513,-0.843,0.516,0,1,0
1777554367.7369597,726.4639999999999,1.5493135452270508,0.022219538688659668,-2.233465019856588,-0.28538734117616826,4.748167037963867,1.2253930568695068,0.0,0.0,-0.0,0.0,0.0,0.0,0.2563476860523224,3.913879871368408,-1.9683096408843994,0.4710388779640198,-0.2063598781824112,0.004486084450036287,-0.03215495418768699,-0.5634557364378754,0.7898907310602362,1.3881445162067325,1.9754213317105396,-0.9655572201550418,0.0,0.0,0.0,0.0,0.0,0.0,1.549285043924363,0.022163501158735777,-2.2334732800930217,-0.28534680585819316,4.748152037575089,1.2254387451645021,7.0,1.0,48.0,48.24300003051758,48.07600021362305,-16.16,34.46,42.66,0.513,-0.843,0.516,0,1,0
1777554367.7463539,726.472,1.5493015050888062,0.022231459617614746,-2.233441177998678,-0.28538734117616826,4.748155117034912,1.2253690958023071,0.0,0.0,-0.0,0.0,0.0,0.0,0.2380371391773224,3.877258777618408,-1.963826060295105,0.4530945420265198,-0.2063598781824112,0.0,-0.03215787692957561,-0.5634802015048639,0.7898901661589374,1.3881658634696012,1.9754625780930042,-0.9655523364374256,0.0,0.0,0.0,0.0,0.0,0.0,1.549285043924363,0.022163501158735777,-2.2334732800930217,-0.28534680585819316,4.748152037575089,1.2254387451645021,7.0,1.0,48.0,48.24300003051758,48.07600021362305,-16.16,34.46,42.66,0.513,-0.843,0.516,0,1,0
1777554367.7550623,726.48,1.5493135452270508,0.022231459617614746,-2.2334168593036097,-0.2853634993182581,4.7482147216796875,1.2253930568695068,0.0,0.0,-0.0,0.0,0.0,0.0,0.2517700493335724,3.877258777618408,-1.961584210395813,0.4553375840187073,-0.2108459621667862,0.0022430422250181437,-0.032151051648586226,-0.5635083986669573,0.7898741158294235,1.3881538379461456,1.9754807737035593,-0.9654417541736895,0.0,0.0,0.0,0.0,0.0,0.0,1.549285043924363,0.022163501158735777,-2.2334732800930217,-0.28534680585819316,4.748152037575089,1.2254387451645021,7.0,1.0,48.0,48.24300003051758,48.07600021362305,-16.16,34.46,42.66,0.513,-0.843,0.516,0,1,0
1777554367.762779,726.4879999999999,1.5492775440216064,0.02220749855041504,-2.233453098927633,-0.2853634993182581,4.7482147216796875,1.2253690958023071,0.0,0.0,-0.0,0.0,0.0,0.0,0.2426147758960724,3.941345691680908,-1.9593424797058105,0.4598236680030823,-0.2108459621667862,0.0022430422250181437,-0.03216493934991141,-0.5634695219415509,0.7898895789300009,1.38814053075891,1.9754394046945447,-0.9655216418141422,0.0,0.0,0.0,0.0,0.0,0.0,1.549285043924363,0.022163501158735777,-2.2334732800930217,-0.28534680585819316,4.748152037575089,1.2254387451645021,7.0,1.0,48.0,48.24300003051758,48.07600021362305,-16.16,34.46,42.66,0.513,-0.843,0.516,0,1,0
1777554367.7680922,726.496,1.549289584159851,0.022219538688659668,-2.233453098927633,-0.28539926210512334,4.748178958892822,1.2253690958023071,0.0,0.0,-0.0,0.0,0.0,0.0,0.2426147758960724,3.913879871368408,-1.9503751993179321,0.4620667099952698,-0.2220611870288849,0.0022430422250181437,-0.03216181855560779,-0.5634648072469821,0.7898971863222274,1.3881414807627472,1.975429521490333,-0.9655682605889364,0.0,0.0,0.0,0.0,0.0,0.0,1.549285043924363,0.022163501158735777,-2.2334732800930217,-0.28534680585819316,4.748152037575089,1.2254387451645021,7.0,1.0,48.0,48.198001861572266,48.07600021362305,-16.16,34.46,42.66,0.513,-0.843,0.516,0,1,0
1777554367.7733305,726.504,1.5493135452270508,0.022171616554260254,-2.233441177998678,-0.2853634993182581,4.748142719268799,1.2253570556640625,0.0,0.0,-0.0,0.0,0.0,0.0,0.2700805962085724,3.886414051055908,-1.963826060295105,0.4710388779640198,-0.2086029201745987,-0.008972168900072575,-0.03214877602558197,-0.56344565441518,0.7899201617948334,1.38813175521785,1.9754537029080779,-0.9655949279257521,0.0,0.0,0.0,0.0,0.0,0.0,1.549285043924363,0.022163501158735777,-2.2334732800930217,-0.28534680585819316,4.748152037575089,1.2254387451645021,7.0,1.0,48.0,48.198001861572266,48.07600021362305,-16.16,34.46,42.66,0.513,-0.843,0.516,0,1,0
1777554367.7782154,726.512,1.549289584159851,0.02219557762145996,-2.233429257069723,-0.2853634993182581,4.748226642608643,1.2253930568695068,0.0,0.0,-0.0,0.0,0.0,0.0,0.2380371391773224,3.877258777618408,-1.9458914995193481,0.4643097519874573,-0.2086029201745987,-0.004486084450036287,-0.03216267168776854,-0.5634772692765906,0.7898924491169582,1.3881450767663326,1.9754329295969155,-0.9654845597280147,0.0,0.0,0.0,0.0,0.0,0.0,1.549285043924363,0.022163501158735777,-2.2334732800930217,-0.28534680585819316,4.748152037575089,1.2254387451645021,7.0,1.0,48.0,48.198001861572266,48.07600021362305,-16.16,34.46,42.66,0.513,-0.843,0.516,0,1,0
1777554367.786995,726.52,1.5493015050888062,0.022159576416015625,-2.233441177998678,-0.2853634993182581,4.748202800750732,1.2253810167312622,0.0,0.0,-0.0,0.0,0.0,0.0,0.2426147758960724,3.950500965118408,-1.9526170492172241,0.4687958359718323,-0.2198181450366974,0.0,-0.032154890423055,-0.5634435640573064,0.7899166571280047,1.388113414386691,1.9754156199447725,-0.9655476241178308,0.0,0.0,0.0,0.0,0.0,0.0,1.549285043924363,0.022163501158735777,-2.2334732800930217,-0.28534680585819316,4.748152037575089,1.2254387451645021,7.0,1.0,48.0,48.198001861572266,48.07600021362305,-16.16,34.46,42.66,0.513,-0.843,0.516,0,1,0
1777554367.789087,726.52,1.5493015050888062,0.022159576416015625,-2.233441177998678,-0.2853634993182581,4.748202800750732,1.2253810167312622,0.0,0.0,-0.0,0.0,0.0,0.0,0.2426147758960724,3.950500965118408,-1.9526170492172241,0.4687958359718323,-0.2198181450366974,0.0,-0.032154890423055,-0.5634435640573064,0.7899166571280047,1.388113414386691,1.9754156199447725,-0.9655476241178308,0.0,0.0,0.0,0.0,0.0,0.0,1.549285043924363,0.022163501158735777,-2.2334732800930217,-0.28534680585819316,4.748152037575089,1.2254387451645021,7.0,1.0,48.0,48.198001861572266,48.07600021362305,-16.12,34.44,42.6,0.514,-0.845,0.516,0,0,1
1777554367.7904418,726.528,1.5493135452270508,0.022219538688659668,-2.2334168593036097,-0.2853754202472132,4.748202800750732,1.2253810167312622,0.0,0.0,-0.0,0.0,0.0,0.0,0.2334595024585724,3.868103504180908,-1.9705514907836914,0.4777680039405823,-0.2130890041589737,0.0022430422250181437,-0.03214925289932791,-0.5634974693348185,0.7898874988047895,1.3881395362712274,1.9754743746570105,-0.965478516858854,0.0,0.0,0.0,0.0,0.0,0.0,1.549285043924363,0.022163501158735777,-2.2334732800930217,-0.28534680585819316,4.748152037575089,1.2254387451645021,7.0,1.0,48.01499938964844,48.198001861572266,48.07600021362305,-16.12,34.44,42.6,0.514,-0.845,0.516,0,1,0
1777554367.7952802,726.536,1.5493135452270508,0.022159576416015625,-2.233429257069723,-0.2853754202472132,4.7482147216796875,1.225404977798462,0.0,0.0,-0.0,0.0,0.0,0.0,0.2517700493335724,3.890991687774658,-1.966067910194397,0.4598236680030823,-0.2063598781824112,0.0022430422250181437,-0.03215259021167463,-0.5634485538840529,0.7899157170708043,1.388111518655689,1.9754004019826552,-0.965520992706456,0.0,0.0,0.0,0.0,0.0,0.0,1.549285043924363,0.022163501158735777,-2.2334732800930217,-0.28534680585819316,4.748152037575089,1.2254387451645021,7.0,1.0,48.01499938964844,48.198001861572266,48.07600021362305,-16.12,34.44,42.6,0.514,-0.845,0.516,0,1,0
1777554367.8048706,726.544,1.5493135452270508,0.02219557762145996,-2.2334769407855433,-0.2853754202472132,4.748167037963867,1.2253930568695068,0.0,0.0,-0.0,0.0,0.0,0.0,0.2563476860523224,3.913879871368408,-1.9727933406829834,0.4441223740577698,-0.2198181450366974,0.0022430422250181437,-0.032154488636829986,-0.5634344197649246,0.7899001798475771,1.3881314190555596,1.9754039458931625,-0.965578342325996,0.0,0.0,0.0,0.0,0.0,0.0,1.549285043924363,0.022163501158735777,-2.2334732800930217,-0.28534680585819316,4.748152037575089,1.2254387451645021,7.0,1.0,48.01499938964844,48.198001861572266,48.07600021362305,-16.12,34.44,42.6,0.514,-0.845,0.516,0,1,0
1777554367.8104706,726.552,1.549289584159851,0.02220749855041504,-2.2334168593036097,-0.2853634993182581,4.748155117034912,1.2253930568695068,0.0,0.0,-0.0,0.0,0.0,0.0,0.2426147758960724,3.918457508087158,-1.963826060295105,0.4508515000343323,-0.1996307522058487,0.0,-0.03217022475743994,-0.5634829569732216,0.7898941798280338,1.3882128556070705,1.9754532501225475,-0.9655257147375165,0.0,0.0,0.0,0.0,0.0,0.0,1.549285043924363,0.022163501158735777,-2.2334732800930217,-0.28534680585819316,4.748152037575089,1.2254387451645021,7.0,1.0,48.01499938964844,48.198001861572266,48.06100082397461,-16.12,34.44,42.6,0.514,-0.845,0.516,0,1,0
1777554367.8220158,726.56,1.549289584159851,0.02220749855041504,-2.2334168593036097,-0.2853634993182581,4.748202800750732,1.225404977798462,0.0,0.0,-0.0,0.0,0.0,0.0,0.2426147758960724,3.904724597930908,-1.9593424797058105,0.4665527939796448,-0.2086029201745987,0.0,-0.03216818224365203,-0.5634887048551338,0.7898871026389529,1.38818677317957,1.9754410771984432,-0.9654786619310525,0.0,0.0,0.0,0.0,0.0,0.0,1.549285043924363,0.022163501158735777,-2.2334732800930217,-0.28534680585819316,4.748152037575089,1.2254387451645021,7.0,1.0,48.01499938964844,48.198001861572266,48.06100082397461,-16.12,34.44,42.6,0.514,-0.845,0.516,0,1,0
1777554367.8245134,726.568,1.5493135452270508,0.022231459617614746,-2.233453098927633,-0.28539926210512334,4.748178958892822,1.2253930568695068,0.0,0.0,-0.0,0.0,0.0,0.0,0.2243042290210724,3.909302234649658,-1.9705514907836914,0.4553375840187073,-0.2130890041589737,0.004486084450036287,-0.032154046757193716,-0.5634708477404323,0.7898867641059862,1.3881419347168718,1.9754295366843064,-0.9655362632608183,0.0,0.0,0.0,0.0,0.0,0.0,1.549285043924363,0.022163501158735777,-2.2334732800930217,-0.28534680585819316,4.748152037575089,1.2254387451645021,7.0,1.0,48.01499938964844,48.24300003051758,48.06100082397461,-16.12,34.44,42.6,0.514,-0.845,0.516,0,1,0
1777554367.8303437,726.576,1.5493015050888062,0.022219538688659668,-2.2334769407855433,-0.2854111830340784,4.748155117034912,1.2253930568695068,0.0,0.0,-0.0,0.0,0.0,0.0,0.2197265923023224,3.886414051055908,-1.9571006298065186,0.4553375840187073,-0.2086029201745987,0.0022430422250181437,-0.032162700549641654,-0.5634403451149996,0.7898984443268824,1.388147557912184,1.975389473377207,-0.9656044328631914,0.0,0.0,0.0,0.0,0.0,0.0,1.549285043924363,0.022163501158735777,-2.2334732800930217,-0.28534680585819316,4.748152037575089,1.2254387451645021,7.0,1.0,48.01499938964844,48.24300003051758,48.06100082397461,-16.12,34.44,42.6,0.514,-0.845,0.516,0,1,0
1777554367.8402135,726.584,1.5492775440216064,0.022219538688659668,-2.233453098927633,-0.28538734117616826,4.748167037963867,1.2254409790039062,0.0,0.0,-0.0,0.0,0.0,0.0,0.2197265923023224,3.895569324493408,-1.9481333494186401,0.4620667099952698,-0.2063598781824112,-0.006729126907885075,-0.03218652348772444,-0.5634573921912303,0.7898839119790254,1.3882323698980454,1.9753696241035117,-0.965541377960418,0.0,0.0,0.0,0.0,0.0,0.0,1.549285043924363,0.022163501158735777,-2.2334732800930217,-0.28534680585819316,4.748152037575089,1.2254387451645021,7.0,1.0,48.01499938964844,48.24300003051758,48.06100082397461,-16.12,34.44,42.6,0.514,-0.845,0.516,0,1,0
1777554367.8455615,726.592,1.549289584159851,0.02212357521057129,-2.233441177998678,-0.28539926210512334,4.7482147216796875,1.2254170179367065,0.0,0.0,-0.0,0.0,0.0,0.0,0.2517700493335724,3.900146961212158,-1.9571006298065186,0.4755249619483948,-0.2041168361902237,0.004486084450036287,-0.03216813371637431,-0.5634093991283177,0.7899405693062989,1.388109411649195,1.9753253125025025,-0.9655893938189942,0.0,0.0,0.0,0.0,0.0,0.0,1.549285043924363,0.022163501158735777,-2.2334732800930217,-0.28534680585819316,4.748152037575089,1.2254387451645021,7.0,1.0,48.01499938964844,48.24300003051758,48.06100082397461,-16.12,34.44,42.6,0.514,-0.845,0.516,0,1,0
1777554367.8573709,726.6,1.5492775440216064,0.022183537483215332,-2.233429257069723,-0.2853754202472132,4.748190879821777,1.2254289388656616,0.0,0.0,-0.0,0.0,0.0,0.0,0.2151489406824112,3.890991687774658,-1.9481333494186401,0.4620667099952698,-0.2130890041589737,0.004486084450036287,-0.03218117998053985,-0.5634571085808191,0.7899011217725422,1.3882035612845744,1.975379228398807,-0.9655261712089049,0.0,0.0,0.0,0.0,0.0,0.0,1.549285043924363,0.022163501158735777,-2.2334732800930217,-0.28534680585819316,4.748152037575089,1.2254387451645021,7.0,1.0,48.01499938964844,48.24300003051758,48.06100082397461,-16.12,34.44,42.6,0.514,-0.845,0.516,0,1,0
1777554367.8589747,726.608,1.5493135452270508,0.02220749855041504,-2.2334168593036097,-0.2853754202472132,4.748167037963867,1.2254289388656616,0.0,0.0,-0.0,0.0,0.0,0.0,0.2471924126148224,3.886414051055908,-1.9481333494186401,0.4530945420265198,-0.2108459621667862,-0.0022430422250181437,-0.0321638094063936,-0.5634789737552942,0.7898908236423747,1.3882014654231805,1.975425039415219,-0.9654988744378388,0.0,0.0,0.0,0.0,0.0,0.0,1.549285043924363,0.022163501158735777,-2.2334732800930217,-0.28534680585819316,4.748152037575089,1.2254387451645021,7.0,1.0,48.01499938964844,48.24300003051758,48.06100082397461,-16.12,34.44,42.6,0.514,-0.845,0.516,0,1,0
1777554367.8679802,726.616,1.5493135452270508,0.022255420684814453,-2.233441177998678,-0.28539926210512334,4.748178958892822,1.2253930568695068,0.0,0.0,-0.0,0.0,0.0,0.0,0.2334595024585724,3.909302234649658,-1.963826060295105,0.4710388779640198,-0.2175751030445099,-0.0022430422250181437,-0.03215455030396086,-0.5634947581437441,0.7898738236257218,1.3881615265022416,1.9754556301317798,-0.9655046945934972,0.0,0.0,0.0,0.0,0.0,0.0,1.549285043924363,0.022163501158735777,-2.2334732800930217,-0.28534680585819316,4.748152037575089,1.2254387451645021,7.0,1.0,48.01499938964844,48.24300003051758,48.06100082397461,-16.12,34.44,42.6,0.514,-0.845,0.516,0,1,0
1777554367.8732429,726.624,1.5493015050888062,0.022183537483215332,-2.233453098927633,-0.28539926210512334,4.748178958892822,1.2253570556640625,0.0,0.0,-0.0,0.0,0.0,0.0,0.2471924126148224,3.886414051055908,-1.9571006298065186,0.4755249619483948,-0.2108459621667862,0.006729126907885075,-0.03215179661204662,-0.5634426804187053,0.7899193519568479,1.3880981188114319,1.9754200287268795,-0.9655999825494012,0.0,0.0,0.0,0.0,0.0,0.0,1.549285043924363,0.022163501158735777,-2.2334732800930217,-0.28534680585819316,4.748152037575089,1.2254387451645021,7.0,1.0,48.01499938964844,48.24300003051758,48.06100082397461,-16.12,34.44,42.6,0.514,-0.845,0.516,0,1,0
1777554367.882363,726.632,1.5492775440216064,0.02220749855041504,-2.233465019856588,-0.2854111830340784,4.748190879821777,1.2253930568695068,0.0,0.0,-0.0,0.0,0.0,0.0,0.2517700493335724,3.923035144805908,-1.961584210395813,0.4620667099952698,-0.1996307522058487,0.004486084450036287,-0.03217258766858644,-0.5634449479813186,0.7899018848191857,1.388146881361783,1.9753758031284359,-0.9655840126107611,0.0,0.0,0.0,0.0,0.0,0.0,1.549285043924363,0.022163501158735777,-2.2334732800930217,-0.28534680585819316,4.748152037575089,1.2254387451645021,7.0,1.0,48.01499938964844,48.24300003051758,48.06100082397461,-16.12,34.44,42.6,0.514,-0.845,0.516,0,1,0
1777554367.8914416,726.64,1.5493015050888062,0.02219557762145996,-2.2334168593036097,-0.28538734117616826,4.748202800750732,1.2253451347351074,0.0,0.0,-0.0,0.0,0.0,0.0,0.2655029594898224,3.881836414337158,-1.9548587799072266,0.4598236680030823,-0.2108459621667862,-0.0022430422250181437,-0.032147332657924466,-0.5634825531684711,0.7899100434102245,1.3881024461371716,1.9754734558061096,-0.9655315516534225,0.0,0.0,0.0,0.0,0.0,0.0,1.549285043924363,0.022163501158735777,-2.2334732800930217,-0.28534680585819316,4.748152037575089,1.2254387451645021,7.0,1.0,48.01499938964844,48.22800064086914,48.06100082397461,-16.12,34.44,42.6,0.514,-0.845,0.516,0,1,0
1777554367.896377,726.6479999999999,1.549289584159851,0.02219557762145996,-2.233441177998678,-0.2854350248919886,4.748190879821777,1.2253930568695068,0.0,0.0,-0.0,0.0,0.0,0.0,0.2517700493335724,3.923035144805908,-1.9571006298065186,0.4553375840187073,-0.2086029201745987,0.004486084450036287,-0.032165886169735425,-0.5634483640187604,0.7899167429570307,1.3881268938861138,1.975373300982828,-0.9655890031980051,0.0,0.0,0.0,0.0,0.0,0.0,1.549285043924363,0.022163501158735777,-2.2334732800930217,-0.28534680585819316,4.748152037575089,1.2254387451645021,7.0,1.0,48.01499938964844,48.22800064086914,48.06100082397461,-16.12,34.44,42.6,0.514,-0.845,0.516,0,1,0
1777554367.9036224,726.656,1.5493135452270508,0.022183537483215332,-2.2334168593036097,-0.28539926210512334,4.748190879821777,1.2253930568695068,0.0,0.0,-0.0,0.0,0.0,0.0,0.2609253227710724,3.904724597930908,-1.9414079189300537,0.4643097519874573,-0.2041168361902237,0.011215210892260075,-0.03215266259229918,-0.563465376671961,0.7899142396573848,1.3881262896664908,1.9754207243017112,-0.965536098648856,0.0,0.0,0.0,0.0,0.0,0.0,1.549285043924363,0.022163501158735777,-2.2334732800930217,-0.28534680585819316,4.748152037575089,1.2254387451645021,7.0,1.0,48.01499938964844,48.22800064086914,48.06100082397461,-16.12,34.44,42.6,0.514,-0.845,0.516,0,1,0
1777554367.9118896,726.664,1.5493135452270508,0.02220749855041504,-2.233453098927633,-0.28538734117616826,4.748155117034912,1.2253930568695068,0.0,0.0,-0.0,0.0,0.0,0.0,0.2380371391773224,3.900146961212158,-1.9548587799072266,0.4508515000343323,-0.2108459621667862,0.0,-0.03215614935925834,-0.5634540584611862,0.7898994085138283,1.3881534842802512,1.9754217176557949,-0.9655677453804137,0.0,0.0,0.0,0.0,0.0,0.0,1.549285043924363,0.022163501158735777,-2.2334732800930217,-0.28534680585819316,4.748152037575089,1.2254387451645021,7.0,1.0,48.01499938964844,48.22800064086914,48.06100082397461,-16.12,34.44,42.6,0.514,-0.845,0.516,0,1,0
1777554367.9190884,726.6719999999999,1.549289584159851,0.022183537483215332,-2.233405415211813,-0.2853634993182581,4.748142719268799,1.225404977798462,0.0,0.0,-0.0,0.0,0.0,0.0,0.2288818657398224,3.895569324493408,-1.9526170492172241,0.4822540879249573,-0.2108459621667862,0.006729126907885075,-0.032174058410236295,-0.5634716934497135,0.7899077718172454,1.3882256653829639,1.9754342248400085,-0.9655422124306208,0.0,0.0,0.0,0.0,0.0,0.0,1.549285043924363,0.022163501158735777,-2.2334732800930217,-0.28534680585819316,4.748152037575089,1.2254387451645021,7.0,1.0,48.01499938964844,48.22800064086914,48.06100082397461,-16.12,34.44,42.6,0.514,-0.845,0.516,0,1,0
1777554367.926509,726.68,1.5493015050888062,0.02219557762145996,-2.233441177998678,-0.2853634993182581,4.7482147216796875,1.2254289388656616,0.0,0.0,-0.0,0.0,0.0,0.0,0.2471924126148224,3.909302234649658,-1.9481333494186401,0.4643097519874573,-0.2108459621667862,-0.0022430422250181437,-0.03216531945451309,-0.5634639143799575,0.7898876444722064,1.3881652992062632,1.975399423845936,-0.9654840188691233,0.0,0.0,0.0,0.0,0.0,0.0,1.549285043924363,0.022163501158735777,-2.2334732800930217,-0.28534680585819316,4.748152037575089,1.2254387451645021,7.0,1.0,47.986000061035156,48.22800064086914,48.06100082397461,-16.12,34.44,42.6,0.514,-0.845,0.516,0,1,0
1777554367.9311705,726.68,1.5493015050888062,0.02219557762145996,-2.233441177998678,-0.2853634993182581,4.7482147216796875,1.2254289388656616,0.0,0.0,-0.0,0.0,0.0,0.0,0.2471924126148224,3.909302234649658,-1.9481333494186401,0.4643097519874573,-0.2108459621667862,-0.0022430422250181437,-0.03216531945451309,-0.5634639143799575,0.7898876444722064,1.3881652992062632,1.975399423845936,-0.9654840188691233,0.0,0.0,0.0,0.0,0.0,0.0,1.549285043924363,0.022163501158735777,-2.2334732800930217,-0.28534680585819316,4.748152037575089,1.2254387451645021,7.0,1.0,47.986000061035156,48.22800064086914,48.06100082397461,-16.2,34.33,42.54,0.512,-0.845,0.52,0,0,1
1777554367.9365225,726.688,1.549289584159851,0.022219538688659668,-2.233465019856588,-0.2853511015521448,4.7482147216796875,1.2253930568695068,0.0,0.0,-0.0,0.0,0.0,0.0,0.2792358696460724,3.913879871368408,-1.9884859323501587,0.4710388779640198,-0.2108459621667862,0.0,-0.0321637620003018,-0.5634699025179676,0.7898748828697704,1.388154616680128,1.9754337456394164,-0.9654945179534202,0.0,0.0,0.0,0.0,0.0,0.0,1.549285043924363,0.022163501158735777,-2.2334732800930217,-0.28534680585819316,4.748152037575089,1.2254387451645021,7.0,1.0,47.986000061035156,48.22800064086914,48.06100082397461,-16.2,34.33,42.54,0.512,-0.845,0.52,0,1,0
1777554367.9418316,726.6959999999999,1.5493135452270508,0.022171616554260254,-2.233429257069723,-0.28539926210512334,4.748190879821777,1.2254170179367065,0.0,0.0,-0.0,0.0,0.0,0.0,0.2609253227710724,3.890991687774658,-1.9458914995193481,0.4508515000343323,-0.2063598781824112,0.004486084450036287,-0.032157883497709844,-0.5634464926014184,0.7899166665981019,1.3881336605912782,1.9753820754083866,-0.9655467394458626,0.0,0.0,0.0,0.0,0.0,0.0,1.549285043924363,0.022163501158735777,-2.2334732800930217,-0.28534680585819316,4.748152037575089,1.2254387451645021,7.0,1.0,47.986000061035156,48.22800064086914,48.04600143432617,-16.2,34.33,42.54,0.512,-0.845,0.52,0,1,0
1777554367.9517455,726.704,1.5493254661560059,0.022183537483215332,-2.233453098927633,-0.28538734117616826,4.7482147216796875,1.225404977798462,0.0,0.0,-0.0,0.0,0.0,0.0,0.2288818657398224,3.854370594024658,-1.9548587799072266,0.4530945420265198,-0.2153320610523224,-0.0022430422250181437,-0.03214584778919319,-0.5634460951467696,0.7899045383674356,1.3880919108838492,1.975397833359906,-0.9655259925147176,0.0,0.0,0.0,0.0,0.0,0.0,1.549285043924363,0.022163501158735777,-2.2334732800930217,-0.28534680585819316,4.748152037575089,1.2254387451645021,7.0,1.0,47.986000061035156,48.22800064086914,48.04600143432617,-16.2,34.33,42.54,0.512,-0.845,0.52,0,1,0
1777554367.9603357,726.712,1.5493135452270508,0.022183537483215332,-2.2334168593036097,-0.2853634993182581,4.748190879821777,1.2253930568695068,0.0,0.0,-0.0,0.0,0.0,0.0,0.2517700493335724,3.959656238555908,-1.9503751993179321,0.4687958359718323,-0.2130890041589737,0.0,-0.03215277659142557,-0.5634731583002666,0.7899037682964265,1.3881457739938154,1.9754468482482683,-0.9655047606915063,0.0,0.0,0.0,0.0,0.0,0.0,1.549285043924363,0.022163501158735777,-2.2334732800930217,-0.28534680585819316,4.748152037575089,1.2254387451645021,7.0,1.0,47.986000061035156,48.24300003051758,48.04600143432617,-16.2,34.33,42.54,0.512,-0.845,0.52,0,1,0
1777554367.9654438,726.7199999999999,1.549289584159851,0.022231459617614746,-2.233453098927633,-0.2853754202472132,4.748178958892822,1.2253690958023071,0.0,0.0,-0.0,0.0,0.0,0.0,0.2288818657398224,3.890991687774658,-1.9548587799072266,0.4867401719093323,-0.2108459621667862,0.006729126907885075,-0.032162063935798596,-0.5634778844075391,0.7898834808114742,1.3881609968044335,1.975455594571529,-0.9655368817312537,0.0,0.0,0.0,0.0,0.0,0.0,1.549285043924363,0.022163501158735777,-2.2334732800930217,-0.28534680585819316,4.748152037575089,1.2254387451645021,7.0,1.0,47.986000061035156,48.24300003051758,48.04600143432617,-16.2,34.33,42.54,0.512,-0.845,0.52,0,1,0
1777554367.970998,726.728,1.5493135452270508,0.022171616554260254,-2.233465019856588,-0.2853754202472132,4.748178958892822,1.2254170179367065,0.0,0.0,-0.0,0.0,0.0,0.0,0.2517700493335724,3.890991687774658,-1.9593424797058105,0.4687958359718323,-0.2175751030445099,-0.004486084450036287,-0.032158670570818476,-0.5634257586036194,0.7899092649941203,1.3881363167247593,1.9753738496806377,-0.9655677464789681,0.0,0.0,0.0,0.0,0.0,0.0,1.549285043924363,0.022163501158735777,-2.2334732800930217,-0.28534680585819316,4.748152037575089,1.2254387451645021,7.0,1.0,47.986000061035156,48.24300003051758,48.04600143432617,-16.2,34.33,42.54,0.512,-0.845,0.52,0,1,0
1777554367.9794204,726.736,1.5492656230926514,0.022219538688659668,-2.2334769407855433,-0.28538734117616826,4.748190879821777,1.225404977798462,0.0,0.0,-0.0,0.0,0.0,0.0,0.2334595024585724,3.858948230743408,-1.9503751993179321,0.4755249619483948,-0.2175751030445099,-0.0022430422250181437,-0.032182153977292016,-0.5634483643443269,0.789885696249325,1.3881835383823398,1.9753767215810656,-0.9655630209361639,0.0,0.0,0.0,0.0,0.0,0.0,1.549285043924363,0.022163501158735777,-2.2334732800930217,-0.28534680585819316,4.748152037575089,1.2254387451645021,7.0,1.0,47.986000061035156,48.24300003051758,48.04600143432617,-16.2,34.33,42.54,0.512,-0.845,0.52,0,1,0
1777554367.9856868,726.7439999999999,1.5493015050888062,0.022219538688659668,-2.233453098927633,-0.28538734117616826,4.748202800750732,1.2253570556640625,0.0,0.0,-0.0,0.0,0.0,0.0,0.2746582329273224,3.881836414337158,-1.9526170492172241,0.4620667099952698,-0.2086029201745987,-0.008972168900072575,-0.03214994104254851,-0.563472626248312,0.7898929354165718,1.3881061501491396,1.9754540071422677,-0.9655370173234982,0.0,0.0,0.0,0.0,0.0,0.0,1.549285043924363,0.022163501158735777,-2.2334732800930217,-0.28534680585819316,4.748152037575089,1.2254387451645021,7.0,1.0,47.986000061035156,48.24300003051758,48.04600143432617,-16.2,34.33,42.54,0.512,-0.845,0.52,0,1,0
1777554367.9954548,726.752,1.549289584159851,0.022231459617614746,-2.233429257069723,-0.2853754202472132,4.748190879821777,1.2253810167312622,0.0,0.0,-0.0,0.0,0.0,0.0,0.2655029594898224,3.904724597930908,-1.966067910194397,0.4687958359718323,-0.2108459621667862,-0.0022430422250181437,-0.032163955901525515,-0.5634944501153292,0.7898814841995399,1.3881751206632684,1.9754621186242907,-0.9655001221916578,0.0,0.0,0.0,0.0,0.0,0.0,1.549285043924363,0.022163501158735777,-2.2334732800930217,-0.28534680585819316,4.748152037575089,1.2254387451645021,7.0,1.0,47.986000061035156,48.24300003051758,48.04600143432617,-16.2,34.33,42.54,0.512,-0.845,0.52,0,1,0
1777554368.0046515,726.76,1.5492775440216064,0.02220749855041504,-2.233405415211813,-0.28539926210512334,4.748202800750732,1.2254170179367065,0.0,0.0,-0.0,0.0,0.0,0.0,0.2609253227710724,3.845215320587158,-1.9548587799072266,0.4463654160499573,-0.2041168361902237,0.0022430422250181437,-0.03217780380452723,-0.5634869509117519,0.7898962692215286,1.3881972872530428,1.9754065849068456,-0.9654999287192366,0.0,0.0,0.0,0.0,0.0,0.0,1.549285043924363,0.022163501158735777,-2.2334732800930217,-0.28534680585819316,4.748152037575089,1.2254387451645021,7.0,1.0,47.986000061035156,48.24300003051758,48.04600143432617,-16.2,34.33,42.54,0.512,-0.845,0.52,0,1,0
1777554368.0149696,726.7679999999999,1.5493135452270508,0.022159576416015625,-2.2334168593036097,-0.28538734117616826,4.748178958892822,1.2253930568695068,0.0,0.0,-0.0,0.0,0.0,0.0,0.2563476860523224,3.863525867462158,-1.9593424797058105,0.4620667099952698,-0.2086029201745987,0.0022430422250181437,-0.03215356300818539,-0.563450349611122,0.7899255746206781,1.3881287525068,1.9754124684815468,-0.9655571552120905,0.0,0.0,0.0,0.0,0.0,0.0,1.549285043924363,0.022163501158735777,-2.2334732800930217,-0.28534680585819316,4.748152037575089,1.2254387451645021,7.0,1.0,47.986000061035156,48.24300003051758,48.06100082397461,-16.2,34.33,42.54,0.512,-0.845,0.52,0,1,0
1777554368.0202184,726.776,1.5493375062942505,0.02220749855041504,-2.233441177998678,-0.28538734117616826,4.748178958892822,1.2253570556640625,0.0,0.0,-0.0,0.0,0.0,0.0,0.2334595024585724,3.858948230743408,-1.9526170492172241,0.4575806260108948,-0.2086029201745987,0.0,-0.032132052906566705,-0.5634703427927952,0.789902922041553,1.3880840835842094,1.9754733252120127,-0.9655418077356923,0.0,0.0,0.0,0.0,0.0,0.0,1.549285043924363,0.022163501158735777,-2.2334732800930217,-0.28534680585819316,4.748152037575089,1.2254387451645021,7.0,1.0,47.986000061035156,48.24300003051758,48.06100082397461,-16.2,34.33,42.54,0.512,-0.845,0.52,0,1,0
1777554368.0289662,726.784,1.5493015050888062,0.022183537483215332,-2.233441177998678,-0.2854350248919886,4.748202800750732,1.2254170179367065,0.0,0.0,-0.0,0.0,0.0,0.0,0.2609253227710724,3.881836414337158,-1.9481333494186401,0.4687958359718323,-0.2041168361902237,-0.0022430422250181437,-0.032163356450411906,-0.5634399227089353,0.7899185272758918,1.3881185596111247,1.9753492936886838,-0.9655730608602586,0.0,0.0,0.0,0.0,0.0,0.0,1.549285043924363,0.022163501158735777,-2.2334732800930217,-0.28534680585819316,4.748152037575089,1.2254387451645021,7.0,1.0,47.986000061035156,48.22800064086914,48.06100082397461,-16.2,34.33,42.54,0.512,-0.845,0.52,0,1,0
1777554368.035228,726.7919999999999,1.5492656230926514,0.02219557762145996,-2.233453098927633,-0.28538734117616826,4.7482147216796875,1.2253570556640625,0.0,0.0,-0.0,0.0,0.0,0.0,0.2609253227710724,3.877258777618408,-1.966067910194397,0.4553375840187073,-0.2086029201745987,0.0022430422250181437,-0.03216861674253571,-0.5634573773970252,0.7899051424865041,1.3881239328319355,1.9754177361336565,-0.9655637767126911,0.0,0.0,0.0,0.0,0.0,0.0,1.549285043924363,0.022163501158735777,-2.2334732800930217,-0.28534680585819316,4.748152037575089,1.2254387451645021,7.0,1.0,47.986000061035156,48.22800064086914,48.06100082397461,-16.2,34.33,42.54,0.512,-0.845,0.52,0,1,0
1777554368.0422873,726.8,1.5493135452270508,0.02220749855041504,-2.233441177998678,-0.2853754202472132,4.748155117034912,1.2254170179367065,0.0,0.0,-0.0,0.0,0.0,0.0,0.2609253227710724,3.904724597930908,-1.9414079189300537,0.4575806260108948,-0.2086029201745987,0.006729126907885075,-0.03216191134734764,-0.5634620859750384,0.7898927969645873,1.3881870825110603,1.9754181668917064,-0.9655360529767602,0.0,0.0,0.0,0.0,0.0,0.0,1.549285043924363,0.022163501158735777,-2.2334732800930217,-0.28534680585819316,4.748152037575089,1.2254387451645021,7.0,1.0,47.986000061035156,48.22800064086914,48.06100082397461,-16.2,34.33,42.54,0.512,-0.845,0.52,0,1,0
1777554368.0534186,726.808,1.5493135452270508,0.022219538688659668,-2.233429257069723,-0.2853754202472132,4.748155117034912,1.2253930568695068,0.0,0.0,-0.0,0.0,0.0,0.0,0.2609253227710724,3.909302234649658,-1.9727933406829834,0.4598236680030823,-0.2018737941980362,-0.0022430422250181437,-0.032156685576001987,-0.5634807268435064,0.7898902791001283,1.3881795172370859,1.9754565556077757,-0.9655257258870477,0.0,0.0,0.0,0.0,0.0,0.0,1.549285043924363,0.022163501158735777,-2.2334732800930217,-0.28534680585819316,4.748152037575089,1.2254387451645021,7.0,1.0,47.986000061035156,48.22800064086914,48.06100082397461,-16.2,34.33,42.54,0.512,-0.845,0.52,0,1,0
1777554368.0585144,726.8159999999999,1.5493254661560059,0.022183537483215332,-2.233441177998678,-0.2854231039630335,4.748226642608643,1.2253810167312622,0.0,0.0,-0.0,0.0,0.0,0.0,0.2334595024585724,3.872681140899658,-1.9548587799072266,0.4598236680030823,-0.2086029201745987,0.008972168900072575,-0.03213913481876782,-0.5634507479180018,0.7899179748727296,1.3880491826471513,1.9754009159157988,-0.9655471696136362,0.0,0.0,0.0,0.0,0.0,0.0,1.549285043924363,0.022163501158735777,-2.2334732800930217,-0.28534680585819316,4.748152037575089,1.2254387451645021,7.0,1.0,47.986000061035156,48.22800064086914,48.06100082397461,-16.2,34.33,42.54,0.512,-0.845,0.52,0,1,0
1777554368.0678415,726.824,1.5493135452270508,0.02220749855041504,-2.233429257069723,-0.2854231039630335,4.748142719268799,1.2253930568695068,0.0,0.0,-0.0,0.0,0.0,0.0,0.2517700493335724,3.936768054962158,-1.9571006298065186,0.4620667099952698,-0.2018737941980362,-0.0022430422250181437,-0.032157613074133506,-0.5634605494391407,0.7899123941422403,1.3881563968319668,1.9754134329364634,-0.9655889430196051,0.0,0.0,0.0,0.0,0.0,0.0,1.549285043924363,0.022163501158735777,-2.2334732800930217,-0.28534680585819316,4.748152037575089,1.2254387451645021,7.0,1.0,47.986000061035156,48.22800064086914,48.06100082397461,-16.2,34.33,42.54,0.512,-0.845,0.52,0,1,0
1777554368.0764625,726.832,1.5492775440216064,0.02220749855041504,-2.233465019856588,-0.2853634993182581,4.748202800750732,1.2254170179367065,0.0,0.0,-0.0,0.0,0.0,0.0,0.2380371391773224,3.845215320587158,-1.9548587799072266,0.4575806260108948,-0.2130890041589737,0.004486084450036287,-0.03217709799440907,-0.5634544672642253,0.7898829161840695,1.388184404460093,1.9753892459491635,-0.9655210475410883,0.0,0.0,0.0,0.0,0.0,0.0,1.549285043924363,0.022163501158735777,-2.2334732800930217,-0.28534680585819316,4.748152037575089,1.2254387451645021,7.0,1.0,48.0,48.22800064086914,48.06100082397461,-16.2,34.33,42.54,0.512,-0.845,0.52,0,1,0
1777554368.0787985,726.8399999999999,1.5493135452270508,0.02220749855041504,-2.233441177998678,-0.2854111830340784,4.748226642608643,1.225404977798462,0.0,0.0,-0.0,0.0,0.0,0.0,0.2151489406824112,3.900146961212158,-1.961584210395813,0.4486084580421448,-0.2063598781824112,-0.004486084450036287,-0.032151789810743014,-0.5634661976573817,0.7898972704155287,1.3881027115505225,1.9753999495637988,-0.9655102420819061,0.0,0.0,0.0,0.0,0.0,0.0,1.549285043924363,0.022163501158735777,-2.2334732800930217,-0.28534680585819316,4.748152037575089,1.2254387451645021,7.0,1.0,48.0,48.22800064086914,48.04600143432617,-16.2,34.33,42.54,0.512,-0.845,0.52,0,1,0
1777554368.088046,726.8399999999999,1.5493135452270508,0.02220749855041504,-2.233441177998678,-0.2854111830340784,4.748226642608643,1.225404977798462,0.0,0.0,-0.0,0.0,0.0,0.0,0.2151489406824112,3.900146961212158,-1.961584210395813,0.4486084580421448,-0.2063598781824112,-0.004486084450036287,-0.032151789810743014,-0.5634661976573817,0.7898972704155287,1.3881027115505225,1.9753999495637988,-0.9655102420819061,0.0,0.0,0.0,0.0,0.0,0.0,1.549285043924363,0.022163501158735777,-2.2334732800930217,-0.28534680585819316,4.748152037575089,1.2254387451645021,7.0,1.0,48.0,48.22800064086914,48.04600143432617,-16.26,34.36,42.6,0.51,-0.842,0.517,0,0,1
1777554368.0897427,726.848,1.5493015050888062,0.02220749855041504,-2.233429257069723,-0.28539926210512334,4.748167037963867,1.2253810167312622,0.0,0.0,-0.0,0.0,0.0,0.0,0.2563476860523224,3.909302234649658,-1.9481333494186401,0.4598236680030823,-0.2041168361902237,-0.0022430422250181437,-0.032159226881642966,-0.5634702626970112,0.7899046005093646,1.3881539008807682,1.9754343009311404,-0.9655575923291755,0.0,0.0,0.0,0.0,0.0,0.0,1.549285043924363,0.022163501158735777,-2.2334732800930217,-0.28534680585819316,4.748152037575089,1.2254387451645021,7.0,1.0,48.0,48.22800064086914,48.04600143432617,-16.26,34.36,42.6,0.51,-0.842,0.517,0,1,0
1777554368.0966535,726.856,1.5493015050888062,0.022183537483215332,-2.233465019856588,-0.28539926210512334,4.748155117034912,1.225404977798462,0.0,0.0,-0.0,0.0,0.0,0.0,0.2746582329273224,3.913879871368408,-1.9593424797058105,0.4687958359718323,-0.2108459621667862,0.006729126907885075,-0.0321651578351668,-0.5634258630112116,0.7899139980568861,1.3881510788123546,1.9753703057351681,-0.9656098122965747,0.0,0.0,0.0,0.0,0.0,0.0,1.549285043924363,0.022163501158735777,-2.2334732800930217,-0.28534680585819316,4.748152037575089,1.2254387451645021,7.0,1.0,48.0,48.25899887084961,48.04600143432617,-16.26,34.36,42.6,0.51,-0.842,0.517,0,1,0
1777554368.1043277,726.8639999999999,1.5493135452270508,0.022219538688659668,-2.2334168593036097,-0.28539926210512334,4.748190879821777,1.2254170179367065,0.0,0.0,-0.0,0.0,0.0,0.0,0.2426147758960724,3.895569324493408,-1.9458914995193481,0.4620667099952698,-0.2018737941980362,0.0,-0.03215873343135167,-0.5634865834038514,0.78989023347269,1.3881666307994807,1.9754259168716912,-0.96549367493926,0.0,0.0,0.0,0.0,0.0,0.0,1.549285043924363,0.022163501158735777,-2.2334732800930217,-0.28534680585819316,4.748152037575089,1.2254387451645021,7.0,1.0,48.0,48.25899887084961,48.04600143432617,-16.26,34.36,42.6,0.51,-0.842,0.517,0,1,0
1777554368.1124728,726.872,1.5493135452270508,0.02219557762145996,-2.233465019856588,-0.2853754202472132,4.748167037963867,1.2254170179367065,0.0,0.0,-0.0,0.0,0.0,0.0,0.2517700493335724,3.941345691680908,-1.9391660690307617,0.4665527939796448,-0.2041168361902237,-0.004486084450036287,-0.032160212624071094,-0.5634398534618142,0.7898970587953783,1.388158522358568,1.975391687181819,-0.9655570954767076,0.0,0.0,0.0,0.0,0.0,0.0,1.549285043924363,0.022163501158735777,-2.2334732800930217,-0.28534680585819316,4.748152037575089,1.2254387451645021,7.0,1.0,48.0,48.25899887084961,48.04600143432617,-16.26,34.36,42.6,0.51,-0.842,0.517,0,1,0
1777554368.1184354,726.88,1.5493135452270508,0.02220749855041504,-2.233441177998678,-0.2854111830340784,4.748167037963867,1.2253810167312622,0.0,0.0,-0.0,0.0,0.0,0.0,0.2517700493335724,3.900146961212158,-1.9750350713729858,0.4441223740577698,-0.2108459621667862,-0.004486084450036287,-0.03215224088625204,-0.5634600026558365,0.7899075144779975,1.388127514953029,1.9754230852460546,-0.9655731250053403,0.0,0.0,0.0,0.0,0.0,0.0,1.549285043924363,0.022163501158735777,-2.2334732800930217,-0.28534680585819316,4.748152037575089,1.2254387451645021,7.0,1.0,48.0,48.25899887084961,48.04600143432617,-16.26,34.36,42.6,0.51,-0.842,0.517,0,1,0
1777554368.1241596,726.8879999999999,1.5493135452270508,0.022135615348815918,-2.233441177998678,-0.2853754202472132,4.748178958892822,1.2254170179367065,0.0,0.0,-0.0,0.0,0.0,0.0,0.2700805962085724,3.872681140899658,-1.9593424797058105,0.4687958359718323,-0.2153320610523224,0.0022430422250181437,-0.03215848742500052,-0.5634180378337721,0.7899307253166333,1.3881295525926722,1.9753650907369689,-0.9655784317009377,0.0,0.0,0.0,0.0,0.0,0.0,1.549285043924363,0.022163501158735777,-2.2334732800930217,-0.28534680585819316,4.748152037575089,1.2254387451645021,7.0,1.0,48.0,48.25899887084961,48.04600143432617,-16.26,34.36,42.6,0.51,-0.842,0.517,0,1,0
1777554368.136522,726.896,1.5492775440216064,0.022243499755859375,-2.2334769407855433,-0.28539926210512334,4.748202800750732,1.2253930568695068,0.0,0.0,-0.0,0.0,0.0,0.0,0.2243042290210724,3.900146961212158,-1.9571006298065186,0.4665527939796448,-0.2108459621667862,-0.0022430422250181437,-0.03217177096425833,-0.5634650773317155,0.7898762010167988,1.3881575271879925,1.9754015254867168,-0.9655419642933936,0.0,0.0,0.0,0.0,0.0,0.0,1.549285043924363,0.022163501158735777,-2.2334732800930217,-0.28534680585819316,4.748152037575089,1.2254387451645021,7.0,1.0,48.0,48.25899887084961,48.04600143432617,-16.26,34.36,42.6,0.51,-0.842,0.517,0,1,0
1777554368.1383169,726.904,1.5492775440216064,0.02220749855041504,-2.233465019856588,-0.2853634993182581,4.748167037963867,1.2253930568695068,0.0,0.0,-0.0,0.0,0.0,0.0,0.2288818657398224,3.895569324493408,-1.9727933406829834,0.4710388779640198,-0.2130890041589737,-0.004486084450036287,-0.032175144399509026,-0.5634517981690604,0.789890541919051,1.3881910347348563,1.9754115085630122,-0.9655630792409614,0.0,0.0,0.0,0.0,0.0,0.0,1.549285043924363,0.022163501158735777,-2.2334732800930217,-0.28534680585819316,4.748152037575089,1.2254387451645021,7.0,1.0,48.0,48.25899887084961,48.04600143432617,-16.26,34.36,42.6,0.51,-0.842,0.517,0,1,0
1777554368.1464436,726.9119999999999,1.5493135452270508,0.022231459617614746,-2.2333930174456995,-0.2854111830340784,4.748190879821777,1.2254170179367065,0.0,0.0,-0.0,0.0,0.0,0.0,0.2334595024585724,3.900146961212158,-1.961584210395813,0.4575806260108948,-0.2018737941980362,0.006729126907885075,-0.03215919195807801,-0.563507985235216,0.7898881511372368,1.38817960946717,1.9754432510307907,-0.965472652061151,0.0,0.0,0.0,0.0,0.0,0.0,1.549285043924363,0.022163501158735777,-2.2334732800930217,-0.28534680585819316,4.748152037575089,1.2254387451645021,7.0,1.0,48.0,48.25899887084961,48.04600143432617,-16.26,34.36,42.6,0.51,-0.842,0.517,0,1,0
1777554368.1554132,726.92,1.5493015050888062,0.02220749855041504,-2.2334769407855433,-0.2854111830340784,4.748190879821777,1.2253930568695068,0.0,0.0,-0.0,0.0,0.0,0.0,0.2426147758960724,3.872681140899658,-1.9593424797058105,0.4710388779640198,-0.2130890041589737,-0.0022430422250181437,-0.03215892308873125,-0.5634376655554871,0.7899013081307978,1.3881137053588988,1.9753794199428902,-0.9655837476129145,0.0,0.0,0.0,0.0,0.0,0.0,1.549285043924363,0.022163501158735777,-2.2334732800930217,-0.28534680585819316,4.748152037575089,1.2254387451645021,7.0,1.0,48.0,48.25899887084961,48.04600143432617,-16.26,34.36,42.6,0.51,-0.842,0.517,0,1,0
1777554368.1603851,726.928,1.5493015050888062,0.022183537483215332,-2.233441177998678,-0.2853634993182581,4.748178958892822,1.2253690958023071,0.0,0.0,-0.0,0.0,0.0,0.0,0.2243042290210724,3.881836414337158,-1.9683096408843994,0.4687958359718323,-0.2130890041589737,0.0022430422250181437,-0.03215486858163788,-0.563457199565497,0.7899075993571134,1.3881344426290116,1.9754443182726458,-0.9655527484976136,0.0,0.0,0.0,0.0,0.0,0.0,1.549285043924363,0.022163501158735777,-2.2334732800930217,-0.28534680585819316,4.748152037575089,1.2254387451645021,7.0,1.0,48.0,48.24300003051758,48.04600143432617,-16.26,34.36,42.6,0.51,-0.842,0.517,0,1,0
1777554368.1715035,726.9359999999999,1.5492775440216064,0.022231459617614746,-2.233429257069723,-0.2853634993182581,4.748202800750732,1.225404977798462,0.0,0.0,-0.0,0.0,0.0,0.0,0.2655029594898224,3.932190418243408,-1.9727933406829834,0.4620667099952698,-0.2130890041589737,0.008972168900072575,-0.032175136533371174,-0.5634957996263008,0.7898729865929479,1.3882065776269303,1.97544325103241,-0.9654738995832787,0.0,0.0,0.0,0.0,0.0,0.0,1.549285043924363,0.022163501158735777,-2.2334732800930217,-0.28534680585819316,4.748152037575089,1.2254387451645021,7.0,1.0,48.0,48.24300003051758,48.04600143432617,-16.26,34.36,42.6,0.51,-0.842,0.517,0,1,0
1777554368.176853,726.944,1.5493015050888062,0.022183537483215332,-2.233429257069723,-0.28538734117616826,4.748226642608643,1.2253930568695068,0.0,0.0,-0.0,0.0,0.0,0.0,0.2471924126148224,3.881836414337158,-1.961584210395813,0.4530945420265198,-0.2130890041589737,-0.0022430422250181437,-0.03215570759838082,-0.5634644966924411,0.7899062219708727,1.3881122098516774,1.9754128953747934,-0.965510692139966,0.0,0.0,0.0,0.0,0.0,0.0,1.549285043924363,0.022163501158735777,-2.2334732800930217,-0.28534680585819316,4.748152037575089,1.2254387451645021,7.0,1.0,48.0,48.24300003051758,48.04600143432617,-16.26,34.36,42.6,0.51,-0.842,0.517,0,1,0
1777554368.1826081,726.952,1.549289584159851,0.022183537483215332,-2.233429257069723,-0.2854231039630335,4.7482147216796875,1.2253930568695068,0.0,0.0,-0.0,0.0,0.0,0.0,0.2838135063648224,3.868103504180908,-1.9727933406829834,0.4553375840187073,-0.2063598781824112,0.0,-0.032163512712233056,-0.5634545685874964,0.7899180024231983,1.3881150965351479,1.9753810847750817,-0.9655578065919831,0.0,0.0,0.0,0.0,0.0,0.0,1.549285043924363,0.022163501158735777,-2.2334732800930217,-0.28534680585819316,4.748152037575089,1.2254387451645021,7.0,1.0,48.0,48.24300003051758,48.04600143432617,-16.26,34.36,42.6,0.51,-0.842,0.517,0,1,0
1777554368.1913066,726.9599999999999,1.5493135452270508,0.022183537483215332,-2.2334769407855433,-0.28539926210512334,4.748190879821777,1.2253690958023071,0.0,0.0,-0.0,0.0,0.0,0.0,0.2243042290210724,3.904724597930908,-1.963826060295105,0.4553375840187073,-0.2153320610523224,0.0,-0.032146277028055226,-0.563427407970037,0.789915031189502,1.3880730338601972,1.9753978634254301,-0.9655997299829482,0.0,0.0,0.0,0.0,0.0,0.0,1.549285043924363,0.022163501158735777,-2.2334732800930217,-0.28534680585819316,4.748152037575089,1.2254387451645021,7.0,1.0,48.0,48.24300003051758,48.04600143432617,-16.26,34.36,42.6,0.51,-0.842,0.517,0,1,0
1777554368.2000177,726.968,1.5493015050888062,0.02219557762145996,-2.233441177998678,-0.28538734117616826,4.748142719268799,1.2253930568695068,0.0,0.0,-0.0,0.0,0.0,0.0,0.2243042290210724,3.918457508087158,-1.9481333494186401,0.4598236680030823,-0.2198181450366974,0.004486084450036287,-0.03216417832185231,-0.5634520015441016,0.7899080711066166,1.3881762990559707,1.9754160219947812,-0.9655839872598091,0.0,0.0,0.0,0.0,0.0,0.0,1.549285043924363,0.022163501158735777,-2.2334732800930217,-0.28534680585819316,4.748152037575089,1.2254387451645021,7.0,1.0,48.0,48.24300003051758,48.04600143432617,-16.26,34.36,42.6,0.51,-0.842,0.517,0,1,0
1777554368.204432,726.976,1.5493135452270508,0.02219557762145996,-2.233405415211813,-0.28539926210512334,4.748155117034912,1.2253570556640625,0.0,0.0,-0.0,0.0,0.0,0.0,0.2426147758960724,3.890991687774658,-1.9593424797058105,0.4777680039405823,-0.2130890041589737,0.0,-0.032148242788943154,-0.563479723359564,0.7899174845400709,1.3881353586922403,1.975470603892105,-0.9655628721200914,0.0,0.0,0.0,0.0,0.0,0.0,1.549285043924363,0.022163501158735777,-2.2334732800930217,-0.28534680585819316,4.748152037575089,1.2254387451645021,7.0,1.0,48.0,48.24300003051758,48.04600143432617,-16.26,34.36,42.6,0.51,-0.842,0.517,0,1,0
1777554368.2130642,726.9839999999999,1.5493254661560059,0.02219557762145996,-2.2334769407855433,-0.28538734117616826,4.748178958892822,1.225404977798462,0.0,0.0,-0.0,0.0,0.0,0.0,0.2243042290210724,3.890991687774658,-1.9503751993179321,0.4620667099952698,-0.2198181450366974,0.008972168900072575,-0.032149298081686734,-0.5634326687875995,0.7899005211819453,1.3881128162259593,1.9753905015472895,-0.9655676600429431,0.0,0.0,0.0,0.0,0.0,0.0,1.549285043924363,0.022163501158735777,-2.2334732800930217,-0.28534680585819316,4.748152037575089,1.2254387451645021,7.0,1.0,47.95500183105469,48.24300003051758,48.04600143432617,-16.26,34.36,42.6,0.51,-0.842,0.517,0,1,0
1777554368.2212617,726.992,1.5493135452270508,0.022219538688659668,-2.233453098927633,-0.2853754202472132,4.7482147216796875,1.2253810167312622,0.0,0.0,-0.0,0.0,0.0,0.0,0.2700805962085724,3.881836414337158,-1.9503751993179321,0.4643097519874573,-0.2130890041589737,0.004486084450036287,-0.032147552863297096,-0.5634747507695921,0.7898844379598612,1.3881107709540526,1.9754475119264785,-0.9654999856598514,0.0,0.0,0.0,0.0,0.0,0.0,1.549285043924363,0.022163501158735777,-2.2334732800930217,-0.28534680585819316,4.748152037575089,1.2254387451645021,7.0,1.0,47.95500183105469,48.24300003051758,48.04600143432617,-16.26,34.36,42.6,0.51,-0.842,0.517,0,1,0
1777554368.2302535,727.0,1.5492775440216064,0.022183537483215332,-2.233441177998678,-0.28538734117616826,4.748238563537598,1.225404977798462,0.0,0.0,-0.0,0.0,0.0,0.0,0.2655029594898224,3.881836414337158,-1.9481333494186401,0.4710388779640198,-0.2175751030445099,-0.0022430422250181437,-0.03217060875042585,-0.563456132773258,0.7899024964810949,1.3881336157435722,1.9753810328034724,-0.9655161629739137,0.0,0.0,0.0,0.0,0.0,0.0,1.549285043924363,0.022163501158735777,-2.2334732800930217,-0.28534680585819316,4.748152037575089,1.2254387451645021,7.0,1.0,47.95500183105469,48.24300003051758,48.04600143432617,-16.26,34.36,42.6,0.51,-0.842,0.517,0,1,0
1777554368.2349074,727.0079999999999,1.5493135452270508,0.022183537483215332,-2.233453098927633,-0.2854111830340784,4.748190879821777,1.2253930568695068,0.0,0.0,-0.0,0.0,0.0,0.0,0.2517700493335724,3.872681140899658,-1.9526170492172241,0.4575806260108948,-0.2130890041589737,-0.004486084450036287,-0.03215212685061436,-0.5634383010984843,0.7899159772113055,1.3881001157031714,1.9753855900422153,-0.9655784373557499,0.0,0.0,0.0,0.0,0.0,0.0,1.549285043924363,0.022163501158735777,-2.2334732800930217,-0.28534680585819316,4.748152037575089,1.2254387451645021,7.0,1.0,47.95500183105469,48.24300003051758,48.04600143432617,-16.26,34.36,42.6,0.51,-0.842,0.517,0,1,0
1777554368.236534,727.0079999999999,1.5493135452270508,0.022183537483215332,-2.233453098927633,-0.2854111830340784,4.748190879821777,1.2253930568695068,0.0,0.0,-0.0,0.0,0.0,0.0,0.2517700493335724,3.872681140899658,-1.9526170492172241,0.4575806260108948,-0.2130890041589737,-0.004486084450036287,-0.03215212685061436,-0.5634383010984843,0.7899159772113055,1.3881001157031714,1.9753855900422153,-0.9655784373557499,0.0,0.0,0.0,0.0,0.0,0.0,1.549285043924363,0.022163501158735777,-2.2334732800930217,-0.28534680585819316,4.748152037575089,1.2254387451645021,7.0,1.0,47.95500183105469,48.24300003051758,48.04600143432617,-16.21,34.42,42.64,0.509,-0.844,0.515,0,0,1
1777554368.2438004,727.016,1.5493015050888062,0.022219538688659668,-2.2334168593036097,-0.2853754202472132,4.748167037963867,1.2254170179367065,0.0,0.0,-0.0,0.0,0.0,0.0,0.2471924126148224,3.904724597930908,-1.9795187711715698,0.4418793320655823,-0.2153320610523224,-0.0022430422250181437,-0.03216799838093792,-0.5634878579664268,0.7898858713193946,1.388211211489188,1.975438020956275,-0.9654990384718461,0.0,0.0,0.0,0.0,0.0,0.0,1.549285043924363,0.022163501158735777,-2.2334732800930217,-0.28534680585819316,4.748152037575089,1.2254387451645021,7.0,1.0,47.95500183105469,48.24300003051758,48.04600143432617,-16.21,34.42,42.64,0.509,-0.844,0.515,0,1,0
1777554368.2533166,727.024,1.5493135452270508,0.022219538688659668,-2.233441177998678,-0.2853634993182581,4.748178958892822,1.225404977798462,0.0,0.0,-0.0,0.0,0.0,0.0,0.2655029594898224,3.877258777618408,-1.9593424797058105,0.4755249619483948,-0.2130890041589737,0.0022430422250181437,-0.03215692172848961,-0.5634774899167242,0.7898817540043495,1.3881716295617428,1.975445272737513,-0.9654995692379104,0.0,0.0,0.0,0.0,0.0,0.0,1.549285043924363,0.022163501158735777,-2.2334732800930217,-0.28534680585819316,4.748152037575089,1.2254387451645021,7.0,1.0,47.95500183105469,48.24300003051758,48.04600143432617,-16.21,34.42,42.64,0.509,-0.844,0.515,0,1,0
1777554368.2616556,727.0319999999999,1.5493015050888062,0.02220749855041504,-2.233441177998678,-0.2853754202472132,4.748178958892822,1.2253930568695068,0.0,0.0,-0.0,0.0,0.0,0.0,0.2243042290210724,3.955078601837158,-1.9458914995193481,0.4687958359718323,-0.2018737941980362,0.0,-0.03216073089884003,-0.563467843976518,0.7898938759595049,1.388161696896841,1.9754320592498256,-0.9655313617107902,0.0,0.0,0.0,0.0,0.0,0.0,1.549285043924363,0.022163501158735777,-2.2334732800930217,-0.28534680585819316,4.748152037575089,1.2254387451645021,7.0,1.0,47.95500183105469,48.24300003051758,48.04600143432617,-16.21,34.42,42.64,0.509,-0.844,0.515,0,1,0
1777554368.2672234,727.04,1.5493015050888062,0.022255420684814453,-2.233453098927633,-0.2854111830340784,4.748178958892822,1.2253930568695068,0.0,0.0,-0.0,0.0,0.0,0.0,0.2746582329273224,3.909302234649658,-1.9548587799072266,0.4620667099952698,-0.2041168361902237,0.0022430422250181437,-0.03216113299833606,-0.5634837239385244,0.7898767379890768,1.3881619764954722,1.9754320437562287,-0.9655310364829061,0.0,0.0,0.0,0.0,0.0,0.0,1.549285043924363,0.022163501158735777,-2.2334732800930217,-0.28534680585819316,4.748152037575089,1.2254387451645021,7.0,1.0,47.95500183105469,48.24300003051758,48.04600143432617,-16.21,34.42,42.64,0.509,-0.844,0.515,0,1,0
1777554368.2766936,727.048,1.5493135452270508,0.022243499755859375,-2.233453098927633,-0.2853634993182581,4.748190879821777,1.2253690958023071,0.0,0.0,-0.0,0.0,0.0,0.0,0.2243042290210724,3.863525867462158,-1.9548587799072266,0.4598236680030823,-0.2175751030445099,0.0022430422250181437,-0.032147568895855155,-0.5634909794583185,0.7898718889580713,1.3881382931224626,1.9754849185338843,-0.9654946634981737,0.0,0.0,0.0,0.0,0.0,0.0,1.549285043924363,0.022163501158735777,-2.2334732800930217,-0.28534680585819316,4.748152037575089,1.2254387451645021,7.0,1.0,47.95500183105469,48.24300003051758,48.04600143432617,-16.21,34.42,42.64,0.509,-0.844,0.515,0,1,0
1777554368.2830193,727.0559999999999,1.5493135452270508,0.02220749855041504,-2.233429257069723,-0.28538734117616826,4.748190879821777,1.2253810167312622,0.0,0.0,-0.0,0.0,0.0,0.0,0.2243042290210724,3.904724597930908,-1.9548587799072266,0.4643097519874573,-0.2018737941980362,0.008972168900072575,-0.03215007614462548,-0.5634767693488402,0.7898984914806912,1.3881288041955462,1.975448320305793,-0.9655208909335221,0.0,0.0,0.0,0.0,0.0,0.0,1.549285043924363,0.022163501158735777,-2.2334732800930217,-0.28534680585819316,4.748152037575089,1.2254387451645021,7.0,1.0,48.0,48.24300003051758,48.06100082397461,-16.21,34.42,42.64,0.509,-0.844,0.515,0,1,0
1777554368.293796,727.064,1.5493015050888062,0.022219538688659668,-2.233429257069723,-0.2853634993182581,4.748190879821777,1.225404977798462,0.0,0.0,-0.0,0.0,0.0,0.0,0.2380371391773224,3.913879871368408,-1.9481333494186401,0.4486084580421448,-0.2063598781824112,0.0,-0.032162667665001254,-0.5634869185062528,0.7898810208201843,1.3881824343195304,1.975447342300244,-0.9654840565568574,0.0,0.0,0.0,0.0,0.0,0.0,1.549285043924363,0.022163501158735777,-2.2334732800930217,-0.28534680585819316,4.748152037575089,1.2254387451645021,7.0,1.0,48.0,48.24300003051758,48.06100082397461,-16.21,34.42,42.64,0.509,-0.844,0.515,0,1,0
1777554368.3001146,727.072,1.5493135452270508,0.022219538688659668,-2.233453098927633,-0.28538734117616826,4.748190879821777,1.2254170179367065,0.0,0.0,-0.0,0.0,0.0,0.0,0.2151489406824112,3.858948230743408,-1.966067910194397,0.4530945420265198,-0.2153320610523224,-0.0022430422250181437,-0.03215827369476609,-0.5634646958608385,0.7898849911275022,1.3881534464692764,1.9754081991740533,-0.9655151223379538,0.0,0.0,0.0,0.0,0.0,0.0,1.549285043924363,0.022163501158735777,-2.2334732800930217,-0.28534680585819316,4.748152037575089,1.2254387451645021,7.0,1.0,48.0,48.22800064086914,48.06100082397461,-16.21,34.42,42.64,0.509,-0.844,0.515,0,1,0
